WoodenJin/High_Speed_Quadrupedal_Locomotion_by_IRRL/Exp_Raw_Data/trot_ref_.csv
x z pitch q0 q1 q2 q3 q4 q5 q6 q7 q8 q9 q10 q11 dq0 dq1 dq2 dq3 dq4 dq5 dq6 dq7 dq8 dq9 dq10 dq11 roll 
1e-05 0.28 0 0 -0.882768 1.71755 0 -0.876874 1.7097 0 -0.876874 1.7097 0 -0.882768 1.71755 0 -1.05726 1.16545 0 0.445552 -0.000345429 0 0.445552 -0.000345429 0 -1.05726 1.16545 0 
2.999e-05 0.28 0 0 -0.885303 1.72071 0 -0.875996 1.7097 0 -0.875996 1.7097 0 -0.885303 1.72071 0 -1.26731 1.57631 0 0.439231 -0.00101567 0 0.439231 -0.00101567 0 -1.26731 1.57631 0 
5.996e-05 0.28 0 0 -0.888363 1.7249 0 -0.875142 1.7097 0 -0.875142 1.7097 0 -0.888363 1.7249 0 -1.52999 2.09739 0 0.426981 -0.00162835 0 0.426981 -0.00162835 0 -1.52999 2.09739 0 
9.99001e-05 0.28 0 -4.14192e-17 -0.892071 1.73039 0 -0.874323 1.70969 0 -0.874323 1.70969 4.14192e-17 -0.892071 1.73039 -2.07096e-14 -1.85418 2.74443 0 0.409139 -0.00215183 0 0.409139 -0.00215183 2.07096e-14 -1.85418 2.74443 0 
0.0001498 0.28 0 0 -0.896566 1.73745 0 -0.873551 1.70969 0 -0.873551 1.70969 0 -0.896566 1.73745 2.07096e-14 -2.24728 3.53025 0 0.386046 -0.00256002 0 0.386046 -0.00256002 -2.07096e-14 -2.24728 3.53025 0 
0.00020965 0.28 0 -4.21406e-17 -0.901994 1.74638 0 -0.872835 1.70968 0 -0.872835 1.70968 4.21406e-17 -0.901994 1.74638 -2.10703e-14 -2.71404 4.46257 0 0.358043 -0.00283304 0 0.358043 -0.00283304 2.10703e-14 -2.71404 4.46257 0 
0.000279441 0.28 0 0 -0.908504 1.75746 0 -0.872184 1.70968 0 -0.872184 1.70968 0 -0.908504 1.75746 2.10703e-14 -3.25527 5.54151 0 0.325476 -0.00295766 0 0.325476 -0.00295766 -2.10703e-14 -3.25527 5.54151 0 
0.000359161 0.28 0 0 -0.916237 1.77097 0 -0.871607 1.70967 0 -0.871607 1.70967 0 -0.916237 1.77097 0 -3.8665 6.75712 0 0.288691 -0.00292757 0 0.288691 -0.00292757 0 -3.8665 6.75712 0 
0.000448802 0.28 0 -4.40883e-17 -0.925311 1.78715 0 -0.871111 1.70966 0 -0.871111 1.70966 4.40883e-17 -0.925311 1.78715 -2.20442e-14 -4.53688 8.08734 0 0.24804 -0.00274337 0 0.24804 -0.00274337 2.20442e-14 -4.53688 8.08734 0 
0.000548353 0.28 0 0 -0.935808 1.80614 0 -0.870703 1.70966 0 -0.870703 1.70966 0 -0.935808 1.80614 2.20442e-14 -5.24837 9.49659 0 0.203875 -0.00241251 0 0.203875 -0.00241251 -2.20442e-14 -5.24837 9.49659 0 
0.000657805 0.28 0 0 -0.947759 1.82801 0 -0.87039 1.70966 0 -0.87039 1.70966 0 -0.947759 1.82801 0 -5.97557 10.9356 0 0.156552 -0.00194894 0 0.156552 -0.00194894 0 -5.97557 10.9356 0 
0.000777147 0.28 0 0 -0.961131 1.8527 0 -0.870177 1.70965 0 -0.870177 1.70965 0 -0.961131 1.8527 0 -6.68613 12.3423 0 0.106428 -0.00137273 0 0.106428 -0.00137273 0 -6.68613 12.3423 0 
0.00090637 0.28 0 0 -0.975815 1.87999 0 -0.870069 1.70965 0 -0.870069 1.70965 0 -0.975815 1.87999 0 -7.34206 13.6449 0 0.0538621 -0.000709457 0 0.0538621 -0.000709457 0 -7.34206 13.6449 0 
0.00104546 0.28 0 5.10219e-17 -0.991618 1.90952 0 -0.870071 1.70965 0 -0.870071 1.70965 -5.10219e-17 -0.991618 1.90952 2.5511e-14 -7.90155 14.7654 0 -0.000783248 1.03877e-05 0 -0.000783248 1.03877e-05 -2.5511e-14 -7.90155 14.7654 0 
0.00119442 0.28 0 0 -1.00826 1.94077 0 -0.870185 1.70965 0 -0.870185 1.70965 0 -1.00826 1.94077 -2.5511e-14 -8.32152 15.6246 0 -0.0571463 0.000752244 0 -0.0571463 0.000752244 2.5511e-14 -8.32152 15.6246 0 
0.00135322 0.28 0 0 -1.02538 1.97306 0 -0.870415 1.70966 0 -0.870415 1.70966 0 -1.02538 1.97306 0 -8.56042 16.148 0 -0.114864 0.00147829 0 -0.114864 0.00147829 0 -8.56042 16.148 0 
0.00152187 0.28 0 -5.79085e-17 -1.04254 2.00561 0 -0.870762 1.70966 0 -0.870762 1.70966 5.79085e-17 -1.04254 2.00561 -2.89543e-14 -8.5812 16.2708 0 -0.173573 0.00214838 0 -0.173573 0.00214838 2.89543e-14 -8.5812 16.2708 0 
0.00170035 0.28 0 0 -1.05925 2.03749 0 -0.871228 1.70967 0 -0.871228 1.70967 0 -1.05925 2.03749 2.89543e-14 -8.35425 15.9439 0 -0.232909 0.00272099 0 -0.232909 0.00272099 -2.89543e-14 -8.35425 15.9439 0 
0.00188865 0.28 0 0 -1.07497 2.06777 0 -0.871813 1.70967 0 -0.871813 1.70967 0 -1.07497 2.06777 0 -7.86016 15.1373 0 -0.292509 0.00315428 0 -0.292509 0.00315428 0 -7.86016 15.1373 0 
0.00208676 0.28 0 0 -1.08916 2.09546 0 -0.872517 1.70968 0 -0.872517 1.70968 0 -1.08916 2.09546 0 -7.09208 13.8441 0 -0.352012 0.00340708 0 -0.352012 0.00340708 0 -7.09208 13.8441 0 
0.00229467 0.28 0 0 -1.10127 2.11962 0 -0.873339 1.70969 0 -0.873339 1.70969 0 -1.10127 2.11962 0 -6.05769 12.0819 0 -0.411057 0.00343998 0 -0.411057 0.00343998 0 -6.05769 12.0819 0 
0.00251238 0.28 0 -7.04341e-17 -1.11083 2.13941 0 -0.874278 1.70969 0 -0.874278 1.70969 7.04341e-17 -1.11083 2.13941 -3.52171e-14 -4.78023 9.89315 0 -0.469287 0.00321631 0 -0.469287 0.00321631 3.52171e-14 -4.78023 9.89315 0 
0.00273987 0.28 0 0 -1.11743 2.15409 0 -0.87533 1.7097 0 -0.87533 1.7097 0 -1.11743 2.15409 3.52171e-14 -3.29858 7.34395 0 -0.526346 0.00270326 0 -0.526346 0.00270326 -3.52171e-14 -3.29858 7.34395 0 
0.00297713 0.28 0 0 -1.12076 2.16314 0 -0.876494 1.7097 0 -0.876494 1.7097 0 -1.12076 2.16314 0 -1.66569 4.52085 0 -0.581882 0.00187278 0 -0.581882 0.00187278 0 -1.66569 4.52085 0 
0.00322415 0.28 0 0 -1.12065 2.16619 0 -0.877765 1.7097 0 -0.877765 1.7097 0 -1.12065 2.16619 0 0.0545328 1.52642 0 -0.635547 0.000702598 0 -0.635547 0.000702598 0 0.0545328 1.52642 0 
0.00348093 0.28 0 0 -1.11707 2.16314 0 -0.879139 1.7097 0 -0.879139 1.7097 0 -1.11707 2.16314 0 1.79189 -1.52657 0 -0.686995 -0.000822935 0 -0.686995 -0.000822935 0 1.79189 -1.52657 0 
0.00374744 0.28 0 0 -1.11012 2.15409 0 -0.880611 1.7097 0 -0.880611 1.7097 0 -1.11012 2.15409 0 3.4755 -4.52184 0 -0.735887 -0.00271201 0 -0.735887 -0.00271201 0 3.4755 -4.52184 0 
0.0040237 0.28 0 0 -1.10004 2.1394 0 -0.882175 1.70969 0 -0.882175 1.70969 0 -1.10004 2.1394 0 5.03929 -7.3466 0 -0.781889 -0.00496461 0 -0.781889 -0.00496461 0 5.03929 -7.3466 0 
0.00430967 0.28 0 0 -1.08719 2.1196 0 -0.883824 1.70967 0 -0.883824 1.70967 0 -1.08719 2.1196 0 6.42669 -9.89816 0 -0.824671 -0.00757193 0 -0.824671 -0.00757193 0 6.42669 -9.89816 0 
0.00460536 0.28 0 0 -1.072 2.09542 0 -0.885552 1.70965 0 -0.885552 1.70965 0 -1.072 2.09542 0 7.5937 -12.0898 0 -0.863908 -0.0105158 0 -0.863908 -0.0105158 0 7.5937 -12.0898 0 
0.00491076 0.28 0 0 -1.05498 2.06771 0 -0.88735 1.70962 0 -0.88735 1.70962 0 -1.05498 2.06771 0 8.51051 -13.8555 0 -0.899284 -0.0137684 0 -0.899284 -0.0137684 0 8.51051 -13.8555 0 
0.00522585 0.28 0 0 -1.03665 2.03741 0 -0.889211 1.70959 0 -0.889211 1.70959 0 -1.03665 2.03741 0 9.16163 -15.1525 0 -0.930487 -0.0172917 0 -0.930487 -0.0172917 0 9.16163 -15.1525 0 
0.00555062 0.28 0 0 -1.01756 2.00548 0 -0.891126 1.70955 0 -0.891126 1.70955 0 -1.01756 2.00548 0 9.54517 -15.9632 0 -0.957211 -0.0210378 0 -0.957211 -0.0210378 0 9.54517 -15.9632 0 
0.00588507 0.28 0 0 -0.998221 1.97289 0 -0.893084 1.7095 0 -0.893084 1.7095 0 -0.998221 1.97289 0 9.67153 -16.2945 0 -0.979159 -0.0249488 0 -0.979159 -0.0249488 0 9.67153 -16.2945 0 
0.00622919 0.28 0 -5.31026e-17 -0.979098 1.94054 0 -0.895076 1.70944 0 -0.895076 1.70944 5.31026e-17 -0.979098 1.94054 -2.65513e-14 9.56167 -16.176 0 -0.996036 -0.0289569 0 -0.996036 -0.0289569 2.65513e-14 9.56167 -16.176 0 
0.00658296 0.28 0 0 -0.960608 1.90922 0 -0.897091 1.70937 0 -0.897091 1.70937 0 -0.960608 1.90922 2.65513e-14 9.24512 -15.6572 0 -1.00756 -0.0329848 0 -1.00756 -0.0329848 -2.65513e-14 9.24512 -15.6572 0 
0.00694637 0.28 0 0 -0.943092 1.87962 0 -0.899118 1.7093 0 -0.899118 1.7093 0 -0.943092 1.87962 0 8.7577 -14.8024 0 -1.01344 -0.0369467 0 -1.01344 -0.0369467 0 8.7577 -14.8024 0 
0.00731943 0.28 0 4.75803e-17 -0.926814 1.85225 0 -0.901145 1.70922 0 -0.901145 1.70922 -4.75803e-17 -0.926814 1.85225 2.37902e-14 8.13902 -13.6862 0 -1.01342 -0.0407488 0 -1.01342 -0.0407488 -2.37902e-14 8.13902 -13.6862 0 
0.00770211 0.28 0 0 -0.911954 1.82747 0 -0.903159 1.70913 0 -0.903159 1.70913 0 -0.911954 1.82747 -2.37902e-14 7.42984 -12.3875 0 -1.00721 -0.0442905 0 -1.00721 -0.0442905 2.37902e-14 7.42984 -12.3875 0 
0.00809441 0.28 0 0 -0.898615 1.8055 0 -0.905149 1.70903 0 -0.905149 1.70903 0 -0.898615 1.8055 0 6.66955 -10.9844 0 -0.994562 -0.0474656 0 -0.994562 -0.0474656 0 6.66955 -10.9844 0 
0.00849631 0.28 0 0 -0.886828 1.78641 0 -0.907099 1.70893 0 -0.907099 1.70893 0 -0.886828 1.78641 0 5.89383 -9.54851 0 -0.975203 -0.0501641 0 -0.975203 -0.0501641 0 5.89383 -9.54851 0 
0.00890782 0.28 0 0 -0.876562 1.77012 0 -0.908997 1.70883 0 -0.908997 1.70883 0 -0.876562 1.77012 0 5.1329 -8.14167 0 -0.948877 -0.0522736 0 -0.948877 -0.0522736 0 5.1329 -8.14167 0 
0.00932891 0.28 0 0 -0.867741 1.7565 0 -0.910827 1.70872 0 -0.910827 1.70872 0 -0.867741 1.7565 0 4.41038 -6.81305 0 -0.915327 -0.0536818 0 -0.915327 -0.0536818 0 4.41038 -6.81305 0 
0.00975958 0.28 0 0 -0.860255 1.7453 0 -0.912576 1.70861 0 -0.912576 1.70861 0 -0.860255 1.7453 0 3.7428 -5.5981 0 -0.874295 -0.0542787 0 -0.874295 -0.0542787 0 3.7428 -5.5981 0 
0.0101998 0.28 0 0 -0.853976 1.73626 0 -0.914227 1.7085 0 -0.914227 1.7085 0 -0.853976 1.73626 0 3.13989 -4.51878 0 -0.825521 -0.0539591 0 -0.825521 -0.0539591 0 3.13989 -4.51878 0 
0.0106496 0.28 0 -4.14192e-17 -0.848765 1.72909 0 -0.915765 1.7084 0 -0.915765 1.7084 4.14192e-17 -0.848765 1.72909 -2.07096e-14 2.6053 -3.58492 0 -0.768742 -0.052626 0 -0.768742 -0.052626 2.07096e-14 2.6053 -3.58492 0 
0.011109 0.28 0 0 -0.84449 1.7235 0 -0.917172 1.7083 0 -0.917172 1.7083 0 -0.84449 1.7235 2.07096e-14 2.13772 -2.79633 0 -0.703692 -0.0501933 0 -0.703692 -0.0501933 -2.07096e-14 2.13772 -2.79633 0 
0.0115779 0.28 0 0 -0.841025 1.71921 0 -0.918432 1.70821 0 -0.918432 1.70821 0 -0.841025 1.71921 0 1.73215 -2.14524 0 -0.630094 -0.04659 0 -0.630094 -0.04659 0 1.73215 -2.14524 0 
0.0120563 0.28 0 0 -0.838263 1.71597 0 -0.919527 1.70812 0 -0.919527 1.70812 0 -0.838263 1.71597 0 1.38117 -1.61879 0 -0.547662 -0.0417636 0 -0.547662 -0.0417636 0 1.38117 -1.61879 0 
0.0125442 0.28 0 0 -0.833362 1.70805 0 -0.923466 1.71357 0 -0.923466 1.71357 0 -0.833362 1.70805 0 2.45055 -3.96098 0 -1.96907 2.72406 0 -1.96907 2.72406 0 2.45055 -3.96098 0 
0.0130417 0.28 0 0 -0.832589 1.70799 0 -0.92546 1.71584 0 -0.92546 1.71584 0 -0.832589 1.70799 0 0.386228 -0.0284621 0 -0.99738 1.13702 0 -0.99738 1.13702 0 0.386228 -0.0284621 0 
0.0135486 0.28 0 0 -0.832038 1.70795 0 -0.927704 1.71896 0 -0.927704 1.71896 0 -0.832038 1.70795 0 0.275579 -0.0205922 0 -1.12159 1.5563 0 -1.12159 1.5563 0 0.275579 -0.0205922 0 
0.0140651 0.28 0 0 -0.831712 1.70793 0 -0.930314 1.72313 0 -0.930314 1.72313 0 -0.831712 1.70793 0 0.163308 -0.0123144 0 -1.30524 2.08612 0 -1.30524 2.08612 0 0.163308 -0.0123144 0 
0.014591 0.28 0 0 -0.831612 1.70792 4.14192e-17 -0.933428 1.72861 -4.14192e-17 -0.933428 1.72861 0 -0.831612 1.70792 0 0.0498162 -0.00377295 2.07096e-14 -1.55714 2.74203 -2.07096e-14 -1.55714 2.74203 0 0.0498162 -0.00377295 0 
0.0151264 0.28 0 0 -0.831741 1.70793 4.1735e-17 -0.937197 1.73569 -4.1735e-17 -0.937197 1.73569 0 -0.831741 1.70793 0 -0.0644843 0.0048824 1.57905e-16 -1.88453 3.5367 -1.57905e-16 -1.88453 3.5367 0 -0.0644843 0.0048824 0 
0.0156713 0.28 0 0 -0.832099 1.70796 4.21406e-17 -0.941781 1.74464 -4.21406e-17 -0.941781 1.74464 0 -0.832099 1.70796 0 -0.179188 0.0134993 2.02791e-16 -2.29178 4.47765 -2.02791e-16 -2.29178 4.47765 0 -0.179188 0.0134993 0 
0.0162256 0.28 0 0 -0.832687 1.708 4.26544e-17 -0.947339 1.75577 -4.26544e-17 -0.947339 1.75577 0 -0.832687 1.708 0 -0.293885 0.0219238 2.56883e-16 -2.77908 5.56483 -2.56883e-16 -2.77908 5.56483 0 -0.293885 0.0219238 0 
0.0167894 0.28 0 0 -0.833504 1.70806 0 -0.954021 1.76935 0 -0.954021 1.76935 0 -0.833504 1.70806 0 -0.408174 0.0300033 -2.13272e-14 -3.34109 6.78817 2.13272e-14 -3.34109 6.78817 0 -0.408174 0.0300033 0 
0.0173626 0.28 0 0 -0.834547 1.70814 0 -0.961953 1.7856 0 -0.961953 1.7856 0 -0.834547 1.70814 0 -0.521645 0.037587 0 -3.96578 8.12546 0 -3.96578 8.12546 0 -0.521645 0.037587 0 
0.0179453 0.28 0 0 -0.835815 1.70823 0 -0.97122 1.80468 0 -0.97122 1.80468 0 -0.835815 1.70823 0 -0.633899 0.0445295 0 -4.63362 9.54101 0 -4.63362 9.54101 0 -0.633899 0.0445295 0 
0.0185373 0.28 0 0 -0.837304 1.70833 0 -0.981855 1.82665 0 -0.981855 1.82665 0 -0.837304 1.70833 0 -0.744533 0.0506911 0 -5.31743 10.9854 0 -5.31743 10.9854 0 -0.744533 0.0506911 0 
0.0191388 0.28 0 0 -0.83901 1.70844 0 -0.993821 1.85145 0 -0.993821 1.85145 0 -0.83901 1.70844 0 -0.853154 0.0559407 0 -5.98284 12.3968 0 -5.98284 12.3968 0 -0.853154 0.0559407 0 
0.0197496 0.28 0 0 -0.840929 1.70856 0 -1.007 1.87885 0 -1.007 1.87885 0 -0.840929 1.70856 0 -0.95937 0.0601572 0 -6.58962 13.703 0 -6.58962 13.703 0 -0.95937 0.0601572 0 
0.0203699 0.28 0 0 -0.843054 1.70869 0 -1.02119 1.9085 0 -1.02119 1.9085 0 -0.843054 1.70869 0 -1.06279 0.0632309 0 -7.09369 14.8261 0 -7.09369 14.8261 0 -1.06279 0.0632309 0 
0.0209995 0.28 0 0 -0.84538 1.70882 0 -1.03609 1.93988 0 -1.03609 1.93988 0 -0.84538 1.70882 0 -1.16305 0.065066 0 -7.44977 15.6871 0 -7.44977 15.6871 0 -1.16305 0.065066 0 
0.0216385 0.28 0 0 -0.8479 1.70895 0 -1.05132 1.9723 0 -1.05132 1.9723 0 -0.8479 1.70895 0 -1.25977 0.0655809 0 -7.61448 16.2111 0 -7.61448 16.2111 0 -1.25977 0.0655809 0 
0.0222869 0.28 0 0 -0.850605 1.70908 0 -1.06641 2.00497 0 -1.06641 2.00497 0 -0.850605 1.70908 0 -1.35258 0.0647108 0 -7.54961 16.3336 0 -7.54961 16.3336 0 -1.35258 0.0647108 0 
0.0229446 0.28 0 0 -0.853487 1.7092 0 -1.08087 2.03698 0 -1.08087 2.03698 0 -0.853487 1.7092 0 -1.44112 0.0624081 0 -7.22549 16.0051 0 -7.22549 16.0051 0 -1.44112 0.0624081 0 
0.0236117 0.28 0 0 -0.856537 1.70932 0 -1.09411 2.06737 0 -1.09411 2.06737 0 -0.856537 1.70932 0 -1.52506 0.0586442 0 -6.62416 15.1957 0 -6.62416 15.1957 0 -1.52506 0.0586442 0 
0.024288 0.28 0 0 -0.859746 1.70943 0 -1.1056 2.09516 0 -1.1056 2.09516 0 -0.859746 1.70943 0 -1.60405 0.0534103 0 -5.74217 13.8982 0 -5.74217 13.8982 0 -1.60405 0.0534103 0 
0.0249738 0.28 0 0 -0.863101 1.70952 0 -1.11478 2.11942 0 -1.11478 2.11942 0 -0.863101 1.70952 0 -1.67777 0.046718 0 -4.59269 12.13 0 -4.59269 12.13 0 -1.67777 0.046718 0 
0.0256688 0.28 0 0 -0.866593 1.7096 0 -1.1212 2.13929 0 -1.1212 2.13929 0 -0.866593 1.7096 0 -1.7459 0.0386005 0 -3.20646 9.93352 0 -3.20646 9.93352 0 -1.7459 0.0386005 0 
0.0263731 0.28 0 0 -0.870209 1.70965 0 -1.12446 2.15404 0 -1.12446 2.15404 0 -0.870209 1.70965 0 -1.80814 0.0291125 0 -1.63104 7.37474 0 -1.63104 7.37474 0 -1.80814 0.0291125 0 
0.0270867 0.28 0 0 -0.873938 1.70969 -7.31104e-17 -1.12432 2.16312 7.31104e-17 -1.12432 2.16312 0 -0.873938 1.70969 0 -1.8642 0.0183313 -3.65552e-14 0.0718677 4.54034 3.65552e-14 0.0718677 4.54034 0 -1.8642 0.0183313 0 
0.0278096 0.28 0 0 -0.877765 1.7097 0 -1.12065 2.16619 0 -1.12065 2.16619 0 -0.877765 1.7097 0 -1.9138 0.00635622 3.65552e-14 1.83114 1.53317 -3.65552e-14 1.83114 1.53317 0 -1.9138 0.00635622 0 
0.0285418 0.28 0 0 -0.881679 1.70969 7.31104e-17 -1.11351 2.16312 -7.31104e-17 -1.11351 2.16312 0 -0.881679 1.70969 0 -1.95667 -0.00669121 3.65552e-14 3.57244 -1.53357 -3.65552e-14 3.57244 -1.53357 0 -1.95667 -0.00669121 0 
0.0292833 0.28 0 0 -0.885664 1.70965 0 -1.10306 2.15403 0 -1.10306 2.15403 0 -0.885664 1.70965 0 -1.99256 -0.0206676 -3.65552e-14 5.22466 -4.54311 3.65552e-14 5.22466 -4.54311 0 -1.99256 -0.0206676 0 
0.030034 0.28 0 0 -0.889706 1.70958 0 -1.08961 2.13927 0 -1.08961 2.13927 0 -0.889706 1.70958 0 -2.02124 -0.0354083 0 6.72556 -7.38211 0 6.72556 -7.38211 0 -2.02124 -0.0354083 0 
0.030794 0.28 0 0 -0.893791 1.70948 0 -1.07356 2.11938 0 -1.07356 2.11938 0 -0.893791 1.70948 0 -2.04247 -0.0507282 0 8.02551 -9.94747 0 8.02551 -9.94747 0 -2.04247 -0.0507282 0 
0.0315632 0.28 0 0 -0.897903 1.70934 0 -1.05538 2.09507 0 -1.05538 2.09507 0 -0.897903 1.70934 0 -2.05605 -0.0664231 0 9.08913 -12.1522 0 9.08913 -12.1522 0 -2.05605 -0.0664231 0 
0.0323416 0.28 0 0 -0.902027 1.70918 0 -1.03559 2.06721 0 -1.03559 2.06721 0 -0.902027 1.70918 0 -2.06178 -0.0822706 0 9.89531 -13.9299 0 9.89531 -13.9299 0 -2.06178 -0.0822706 0 
0.0331293 0.28 0 0 -0.906146 1.70898 0 -1.01472 2.03674 0 -1.01472 2.03674 0 -0.906146 1.70898 0 -2.05947 -0.0980322 0 10.4361 -15.2381 0 10.4361 -15.2381 0 -2.05947 -0.0980322 0 
0.0339261 0.28 0 0 -0.910244 1.70876 0 -0.993285 2.00462 0 -0.993285 2.00462 0 -0.910244 1.70876 0 -2.04894 -0.113455 0 10.7152 -16.0589 0 10.7152 -16.0589 0 -2.04894 -0.113455 0 
0.0347322 0.28 0 0 -0.914304 1.7085 0 -0.971792 1.97182 0 -0.971792 1.97182 0 -0.914304 1.7085 0 -2.03004 -0.128274 0 10.7464 -16.3994 0 10.7464 -16.3994 0 -2.03004 -0.128274 0 
0.0355475 0.28 0 0 -0.918309 1.70821 5.31026e-17 -0.950688 1.93924 -5.31026e-17 -0.950688 1.93924 0 -0.918309 1.70821 0 -2.0026 -0.142216 2.65513e-14 10.5522 -16.2893 -2.65513e-14 10.5522 -16.2893 0 -2.0026 -0.142216 0 
0.0363719 0.28 0 0 -0.922242 1.7079 0 -0.930364 1.90768 0 -0.930364 1.90768 0 -0.922242 1.7079 0 -1.96647 -0.154998 -2.65513e-14 10.1621 -15.7778 2.65513e-14 10.1621 -15.7778 0 -1.96647 -0.154998 0 
0.0372056 0.28 0 0 -0.926085 1.70757 0 -0.911143 1.87783 0 -0.911143 1.87783 0 -0.926085 1.70757 0 -1.92152 -0.166338 0 9.61061 -14.9293 0 9.61061 -14.9293 0 -1.92152 -0.166338 0 
0.0380484 0.28 0 0 -0.92982 1.70722 -4.75803e-17 -0.893272 1.85019 4.75803e-17 -0.893272 1.85019 0 -0.92982 1.70722 0 -1.8676 -0.175952 -2.37902e-14 8.93541 -13.8181 2.37902e-14 8.93541 -13.8181 0 -1.8676 -0.175952 0 
0.0389003 0.28 0 0 -0.933429 1.70685 0 -0.876922 1.82514 0 -0.876922 1.82514 0 -0.933429 1.70685 0 -1.80457 -0.183559 2.37902e-14 8.17501 -12.5232 -2.37902e-14 8.17501 -12.5232 0 -1.80457 -0.183559 0 
0.0397614 0.28 0 0 -0.936894 1.70648 4.5052e-17 -0.862189 1.8029 -4.5052e-17 -0.862189 1.8029 0 -0.936894 1.70648 0 -1.73231 -0.18889 2.2526e-14 7.36642 -11.122 -2.2526e-14 7.36642 -11.122 0 -1.73231 -0.18889 0 
0.0406317 0.28 0 0 -0.940195 1.70609 4.40883e-17 -0.849103 1.78353 -4.40883e-17 -0.849103 1.78353 0 -0.940195 1.70609 0 -1.65064 -0.191687 -4.81853e-16 6.54306 -9.68634 4.81853e-16 6.54306 -9.68634 0 -1.65064 -0.191687 0 
0.041511 0.28 0 0 -0.943314 1.70571 4.32965e-17 -0.837636 1.76697 -4.32965e-17 -0.837636 1.76697 0 -0.943314 1.70571 0 -1.55944 -0.19171 -3.95926e-16 5.73311 -8.27767 3.95926e-16 5.73311 -8.27767 0 -1.55944 -0.19171 0 
0.0423995 0.28 0 0 -0.946231 1.70533 0 -0.82772 1.75308 0 -0.82772 1.75308 0 -0.946231 1.70533 0 -1.45853 -0.188744 -2.16482e-14 4.95845 -6.94503 2.16482e-14 4.95845 -6.94503 0 -1.45853 -0.188744 0 
0.0432971 0.28 0 0 -0.948926 1.70497 4.21406e-17 -0.819251 1.74163 -4.21406e-17 -0.819251 1.74163 0 -0.948926 1.70497 0 -1.34772 -0.182604 2.10703e-14 4.23419 -5.72374 -2.10703e-14 4.23419 -5.72374 0 -1.34772 -0.182604 0 
0.0442038 0.28 0 0 -0.95138 1.70462 0 -0.812113 1.73236 0 -0.812113 1.73236 0 -0.95138 1.70462 0 -1.22682 -0.173139 -2.10703e-14 3.56902 -4.63567 2.10703e-14 3.56902 -4.63567 0 -1.22682 -0.173139 0 
0.0451196 0.28 0 0 -0.953571 1.7043 4.14192e-17 -0.806181 1.72498 -4.14192e-17 -0.806181 1.72498 0 -0.953571 1.7043 0 -1.09559 -0.160243 2.07096e-14 2.96582 -3.69063 -2.07096e-14 2.96582 -3.69063 0 -1.09559 -0.160243 0 
0.0460445 0.28 0 0 -0.955479 1.70401 0 -0.801336 1.7192 0 -0.801336 1.7192 0 -0.955479 1.70401 0 -0.953785 -0.143859 -2.07096e-14 2.42288 -2.88844 2.07096e-14 2.42288 -2.88844 0 -0.953785 -0.143859 0 
0.0469785 0.28 0 0 -0.957081 1.70376 0 -0.797466 1.71476 0 -0.797466 1.71476 0 -0.957081 1.70376 0 -0.801096 -0.123985 0 1.935 -2.2214 0 1.935 -2.2214 0 -0.801096 -0.123985 0 
0.0479215 0.28 0 0 -0.958355 1.70356 0 -0.794476 1.71141 0 -0.794476 1.71141 0 -0.958355 1.70356 0 -0.637193 -0.100689 0 1.49479 -1.67675 0 1.49479 -1.67675 0 -0.637193 -0.100689 0 
0.0488736 0.28 0 0 -0.962432 1.70893 0 -0.789673 1.70341 0 -0.789673 1.70341 0 -0.962432 1.70893 0 -2.03853 2.68386 0 2.40182 -3.9969 0 2.40182 -3.9969 0 -2.03853 2.68386 0 
0.0498347 0.28 0 0 -0.964321 1.71117 0 -0.789025 1.70332 0 -0.789025 1.70332 0 -0.964321 1.71117 0 -0.944378 1.11982 0 0.323603 -0.0448748 0 0.323603 -0.0448748 0 -0.944378 1.11982 0 
0.0508048 0.28 0 0 -0.966311 1.71429 0 -0.78881 1.70329 0 -0.78881 1.70329 0 -0.966311 1.71429 0 -0.995087 1.56086 0 0.107528 -0.0149772 0 0.107528 -0.0149772 0 -0.995087 1.56086 0 
0.051784 0.28 0 0 -0.968534 1.71851 0 -0.789021 1.70332 0 -0.789021 1.70332 0 -0.968534 1.71851 0 -1.11111 2.11175 0 -0.105612 0.0147106 0 -0.105612 0.0147106 0 -1.11111 2.11175 0 
0.0527723 0.28 0 0 -0.971136 1.72409 0 -0.789652 1.70341 0 -0.789652 1.70341 0 -0.971136 1.72409 0 -1.30116 2.78773 0 -0.315303 0.0437292 0 -0.315303 0.0437292 0 -1.30116 2.78773 0 
0.0537695 0.28 0 0 -0.97428 1.73129 0 -0.790694 1.70355 0 -0.790694 1.70355 0 -0.97428 1.73129 0 -1.57219 3.60116 0 -0.521031 0.0716394 0 -0.521031 0.0716394 0 -1.57219 3.60116 0 
0.0547757 0.28 0 0 -0.978137 1.74041 0 -0.792139 1.70375 0 -0.792139 1.70375 0 -0.978137 1.74041 0 -1.92816 4.55933 0 -0.7223 0.0980284 0 -0.7223 0.0980284 0 -1.92816 4.55933 0 
0.0557909 0.28 0 0 -0.982874 1.75174 0 -0.793976 1.704 0 -0.793976 1.704 0 -0.982874 1.75174 0 -2.36866 5.66197 0 -0.918625 0.122511 0 -0.918625 0.122511 0 -2.36866 5.66197 0 
0.0568151 0.28 0 -4.32965e-17 -0.988649 1.76553 0 -0.796195 1.70428 0 -0.796195 1.70428 4.32965e-17 -0.988649 1.76553 -2.16482e-14 -2.88748 6.89882 0 -1.10952 0.144731 0 -1.10952 0.144731 2.16482e-14 -2.88748 6.89882 0 
0.0578483 0.28 0 0 -0.995592 1.78203 0 -0.798784 1.70461 0 -0.798784 1.70461 0 -0.995592 1.78203 2.16482e-14 -3.47148 8.24753 0 -1.29453 0.164367 0 -1.29453 0.164367 -2.16482e-14 -3.47148 8.24753 0 
0.0588905 0.28 0 0 -1.00379 1.80137 0 -0.801731 1.70498 0 -0.801731 1.70498 0 -1.00379 1.80137 0 -4.09976 9.67236 0 -1.47319 0.18113 0 -1.47319 0.18113 0 -4.09976 9.67236 0 
0.0599416 0.28 0 -4.62093e-17 -1.01328 1.82362 0 -0.805021 1.70537 0 -0.805021 1.70537 4.62093e-17 -1.01328 1.82362 -2.31047e-14 -4.74348 11.1239 0 -1.64508 0.19477 0 -1.64508 0.19477 2.31047e-14 -4.74348 11.1239 0 
0.0610016 0.28 0 0 -1.02401 1.8487 0 -0.80864 1.70578 0 -0.80864 1.70578 0 -1.02401 1.8487 2.31047e-14 -5.36641 12.5402 0 -1.80975 0.205076 0 -1.80975 0.205076 -2.31047e-14 -5.36641 12.5402 0 
0.0620706 0.28 0 0 -1.03586 1.8764 0 -0.812574 1.7062 0 -0.812574 1.7062 0 -1.03586 1.8764 0 -5.92625 13.8493 0 -1.96681 0.211875 0 -1.96681 0.211875 0 -5.92625 13.8493 0 
0.0631486 0.28 0 -5.10219e-17 -1.04862 1.90635 0 -0.816806 1.70663 0 -0.816806 1.70663 5.10219e-17 -1.04862 1.90635 -2.5511e-14 -6.37682 14.9733 0 -2.11586 0.215039 0 -2.11586 0.215039 2.5511e-14 -6.37682 14.9733 0 
0.0642354 0.28 0 0 -1.06196 1.93801 0 -0.821319 1.70706 0 -0.821319 1.70706 0 -1.06196 1.93801 2.5511e-14 -6.67082 15.8332 0 -2.25651 0.214479 0 -2.25651 0.214479 -2.5511e-14 -6.67082 15.8332 0 
0.0653312 0.28 0 -5.5409e-17 -1.07549 1.97072 0 -0.826095 1.70748 0 -0.826095 1.70748 5.5409e-17 -1.07549 1.97072 -2.77045e-14 -6.76311 16.3543 0 -2.38841 0.210155 0 -2.38841 0.210155 2.77045e-14 -6.76311 16.3543 0 
0.0664359 0.28 0 0 -1.08871 2.00366 0 -0.831118 1.70788 0 -0.831118 1.70788 0 -1.08871 2.00366 2.77045e-14 -6.61439 16.472 0 -2.51122 0.202068 0 -2.51122 0.202068 -2.77045e-14 -6.61439 16.472 0 
0.0675494 0.28 0 0 -1.1011 2.03594 0 -0.836367 1.70826 0 -0.836367 1.70826 0 -1.1011 2.03594 0 -6.19488 16.1366 0 -2.62461 0.190265 0 -2.62461 0.190265 0 -6.19488 16.1366 0 
0.0686719 0.28 0 0 -1.11208 2.06657 0 -0.841824 1.70861 0 -0.841824 1.70861 0 -1.11208 2.06657 0 -5.48792 15.3182 0 -2.72829 0.174839 0 -2.72829 0.174839 0 -5.48792 15.3182 0 
0.0698032 0.28 0 0 -1.12107 2.09459 0 -0.847468 1.70892 0 -0.847468 1.70892 0 -1.12107 2.09459 0 -4.49323 14.0092 0 -2.82197 0.155927 0 -2.82197 0.155927 0 -4.49323 14.0092 0 
0.0709434 0.28 0 0 -1.12752 2.11905 0 -0.853278 1.70919 0 -0.853278 1.70919 0 -1.12752 2.11905 0 -3.22916 12.2268 0 -2.90541 0.133713 0 -2.90541 0.133713 0 -3.22916 12.2268 0 
0.0720925 0.28 0 0 -1.13099 2.13907 0 -0.859235 1.70941 0 -0.859235 1.70941 0 -1.13099 2.13907 0 -1.73355 10.0132 0 -2.97836 0.108423 0 -2.97836 0.108423 0 -1.73355 10.0132 0 
0.0732504 0.28 0 0 -1.13112 2.15394 0 -0.865316 1.70957 0 -0.865316 1.70957 0 -1.13112 2.15394 0 -0.0623893 7.43445 0 -3.04063 0.0803255 0 -3.04063 0.0803255 0 -0.0623893 7.43445 0 
0.0744171 0.28 0 0 -1.12769 2.1631 0 -0.8715 1.70967 0 -0.8715 1.70967 0 -1.12769 2.1631 0 1.71408 4.57752 0 -3.09203 0.0497313 0 -3.09203 0.0497313 0 1.71408 4.57752 0 
0.0755927 0.28 0 0 -1.12065 2.16619 0 -0.877765 1.7097 0 -0.877765 1.7097 0 -1.12065 2.16619 0 3.51758 1.54587 0 -3.1324 0.0169907 0 -3.1324 0.0169907 0 3.51758 1.54587 0 
0.0767771 0.28 0 0 -1.11011 2.1631 0 -0.884088 1.70967 0 -0.884088 1.70967 0 -1.11011 2.1631 0 5.26945 -1.54649 0 -3.16163 -0.0175089 0 -3.16163 -0.0175089 0 5.26945 -1.54649 0 
0.0779703 0.28 0 0 -1.09632 2.15393 0 -0.890448 1.70956 0 -0.890448 1.70956 0 -1.09632 2.15393 0 6.89809 -4.5818 0 -3.17959 -0.0533451 0 -3.17959 -0.0533451 0 6.89809 -4.5818 0 
0.0791724 0.28 0 0 -1.07963 2.13904 0 -0.89682 1.70938 0 -0.89682 1.70938 0 -1.07963 2.13904 0 8.34468 -7.44584 0 -3.18622 -0.0900639 0 -3.18622 -0.0900639 0 8.34468 -7.44584 0 
0.0803832 0.28 0 0 -1.0605 2.11897 0 -0.903183 1.70913 0 -0.903183 1.70913 0 -1.0605 2.11897 0 9.5661 -10.0348 0 -3.18147 -0.127183 0 -3.18147 -0.127183 0 9.5661 -10.0348 0 
0.0816028 0.28 0 0 -1.03943 2.09445 0 -0.909514 1.7088 0 -0.909514 1.7088 0 -1.03943 2.09445 0 10.5352 -12.2611 0 -3.16529 -0.164194 0 -3.16529 -0.164194 0 10.5352 -12.2611 0 
0.0828312 0.28 0 0 -1.01695 2.06633 0 -0.915789 1.7084 0 -0.915789 1.7084 0 -1.01695 2.06633 0 11.2393 -14.0583 0 -3.13768 -0.200569 0 -3.13768 -0.200569 0 11.2393 -14.0583 0 
0.0840684 0.28 0 0 -0.993592 2.03556 0 -0.921986 1.70793 0 -0.921986 1.70793 0 -0.993592 2.03556 0 11.6776 -15.3838 0 -3.09865 -0.235765 0 -3.09865 -0.235765 0 11.6776 -15.3838 0 
0.0853143 0.28 0 0 -0.969873 2.00312 0 -0.928083 1.70739 0 -0.928083 1.70739 0 -0.969873 2.00312 0 11.8594 -16.2199 0 -3.04823 -0.269225 0 -3.04823 -0.269225 0 11.8594 -16.2199 0 
0.086569 0.28 0 0 -0.94627 1.96998 0 -0.934056 1.70679 0 -0.934056 1.70679 0 -0.94627 1.96998 0 11.8017 -16.5738 0 -2.98646 -0.30039 0 -2.98646 -0.30039 0 11.8017 -16.5738 0 
0.0878324 0.28 0 0 -0.923213 1.93703 0 -0.939882 1.70613 0 -0.939882 1.70613 0 -0.923213 1.93703 0 11.5286 -16.4752 0 -2.91338 -0.328698 0 -2.91338 -0.328698 0 11.5286 -16.4752 0 
0.0891046 0.28 0 0 -0.901074 1.90508 0 -0.94554 1.70542 0 -0.94554 1.70542 0 -0.901074 1.90508 0 11.0694 -15.9734 0 -2.82906 -0.353595 0 -2.82906 -0.353595 0 11.0694 -15.9734 0 
0.0903855 0.28 0 0 -0.880159 1.87481 0 -0.951008 1.70467 0 -0.951008 1.70467 0 -0.880159 1.87481 0 10.4574 -15.1327 0 -2.73355 -0.37454 0 -2.73355 -0.37454 0 10.4574 -15.1327 0 
0.0916751 0.28 0 -4.75803e-17 -0.860702 1.84676 0 -0.956261 1.70389 0 -0.956261 1.70389 4.75803e-17 -0.860702 1.84676 -2.37902e-14 9.72855 -14.0273 0 -2.62691 -0.391011 0 -2.62691 -0.391011 2.37902e-14 9.72855 -14.0273 0 
0.0929734 0.28 0 0 -0.842864 1.82129 0 -0.96128 1.70309 0 -0.96128 1.70309 0 -0.842864 1.82129 2.37902e-14 8.91905 -12.7357 0 -2.50918 -0.402515 0 -2.50918 -0.402515 -2.37902e-14 8.91905 -12.7357 0 
0.0942804 0.28 0 0 -0.826736 1.79862 0 -0.96604 1.70227 0 -0.96604 1.70227 0 -0.826736 1.79862 0 8.06365 -11.3352 0 -2.38038 -0.408595 0 -2.38038 -0.408595 0 8.06365 -11.3352 0 
0.0955962 0.28 0 0 -0.812349 1.77882 0 -0.970522 1.70145 0 -0.970522 1.70145 0 -0.812349 1.77882 0 7.19359 -9.89724 0 -2.24052 -0.408837 0 -2.24052 -0.408837 0 7.19359 -9.89724 0 
0.0969206 0.28 0 0 -0.799679 1.76186 0 -0.974701 1.70065 0 -0.974701 1.70065 0 -0.799679 1.76186 0 6.3351 -8.48311 0 -2.08958 -0.40288 0 -2.08958 -0.40288 0 6.3351 -8.48311 0 
0.0982537 0.28 0 0 -0.788662 1.74757 0 -0.978556 1.69986 0 -0.978556 1.69986 0 -0.788662 1.74757 0 5.5084 -7.14164 0 -1.92748 -0.390428 0 -1.92748 -0.390428 0 5.5084 -7.14164 0 
0.0995954 0.28 0 0 -0.779208 1.73576 0 -0.982064 1.69912 0 -0.982064 1.69912 0 -0.779208 1.73576 0 4.72731 -5.90802 0 -1.75413 -0.371255 0 -1.75413 -0.371255 0 4.72731 -5.90802 0 
0.100946 0.28 0 0 -0.771209 1.72615 0 -0.985203 1.69843 0 -0.985203 1.69843 0 -0.771209 1.72615 0 3.99952 -4.80409 0 -1.56934 -0.34522 0 -1.56934 -0.34522 0 3.99952 -4.80409 0 
0.102305 0.28 0 0 -0.764554 1.71847 0 -0.987948 1.69781 0 -0.987948 1.69781 0 -0.764554 1.71847 0 3.32727 -3.83966 0 -1.37289 -0.312274 0 -1.37289 -0.312274 0 3.32727 -3.83966 0 
0.103673 0.28 0 0 -0.759137 1.71244 0 -0.990277 1.69726 0 -0.990277 1.69726 0 -0.759137 1.71244 0 2.70848 -3.01464 0 -1.16449 -0.272474 0 -1.16449 -0.272474 0 2.70848 -3.01464 0 
0.105049 0.28 0 0 -0.754861 1.7078 0 -0.992165 1.69681 0 -0.992165 1.69681 0 -0.754861 1.7078 0 2.13783 -2.32151 0 -0.943734 -0.225995 0 -0.943734 -0.225995 0 2.13783 -2.32151 0 
0.106434 0.28 0 4.08563e-17 -0.751645 1.7043 0 -0.993585 1.69646 0 -0.993585 1.69646 -4.08563e-17 -0.751645 1.7043 2.04281e-14 1.60803 -1.74774 0 -0.710164 -0.173144 0 -0.710164 -0.173144 -2.04281e-14 1.60803 -1.74774 0 
0.107827 0.28 0 0 -0.746933 1.69624 0 -0.997783 1.70175 0 -0.997783 1.70175 0 -0.746933 1.69624 -2.04281e-14 2.35627 -4.03343 0 -2.09884 2.64098 0 -2.09884 2.64098 2.04281e-14 2.35627 -4.03343 0 
0.10923 0.28 0 0 -0.746415 1.69613 0 -0.999579 1.70397 0 -0.999579 1.70397 0 -0.746415 1.69613 0 0.259108 -0.051139 0 -0.898001 1.11241 0 -0.898001 1.11241 0 0.259108 -0.051139 0 
0.11064 0.28 0 0 -0.746539 1.69616 0 -1.00135 1.70714 0 -1.00135 1.70714 0 -0.746539 1.69616 0 -0.0619665 0.0122463 0 -0.886909 1.58654 0 -0.886909 1.58654 0 -0.0619665 0.0122463 0 
0.11206 0.28 0 0 -0.747289 1.69631 0 -1.00324 1.71148 0 -1.00324 1.71148 0 -0.747289 1.69631 0 -0.375437 0.0739785 0 -0.946137 2.16899 0 -0.946137 2.16899 0 -0.375437 0.0739785 0 
0.113488 0.28 0 0 -0.748651 1.69657 0 -1.00541 1.71723 0 -1.00541 1.71723 0 -0.748651 1.69657 0 -0.680652 0.133164 0 -1.08415 2.87455 0 -1.08415 2.87455 0 -0.680652 0.133164 0 
0.114924 0.28 0 0 -0.750605 1.69695 -4.1735e-17 -1.00803 1.72466 4.1735e-17 -1.00803 1.72466 0 -0.750605 1.69695 0 -0.976985 0.18898 -2.08675e-14 -1.30761 3.7152 2.08675e-14 -1.30761 3.7152 0 -0.976985 0.18898 0 
0.116369 0.28 0 0 -0.753132 1.69743 4.21406e-17 -1.01127 1.73406 -4.21406e-17 -1.01127 1.73406 0 -0.753132 1.69743 0 -1.26383 0.240679 4.19378e-14 -1.62001 4.6979 -4.19378e-14 -1.62001 4.6979 0 -1.26383 0.240679 0 
0.117823 0.28 0 0 -0.756214 1.69801 4.26544e-17 -1.01531 1.7457 -4.26544e-17 -1.01531 1.7457 0 -0.756214 1.69801 0 -1.54061 0.28759 2.56883e-16 -2.02032 5.8221 -2.56883e-16 -2.02032 5.8221 0 -1.54061 0.28759 0 
0.119285 0.28 0 0 -0.759827 1.69866 0 -1.02031 1.75986 0 -1.02031 1.75986 0 -0.759827 1.69866 0 -1.80678 0.329119 -2.13272e-14 -2.50153 7.07734 2.13272e-14 -2.50153 7.07734 0 -1.80678 0.329119 0 
0.120756 0.28 0 0 -0.763951 1.69939 0 -1.02641 1.77674 0 -1.02641 1.77674 0 -0.763951 1.69939 0 -2.06178 0.364751 0 -3.04945 8.44116 0 -3.04945 8.44116 0 -2.06178 0.364751 0 
0.122235 0.28 0 0 -0.768561 1.70018 0 -1.03369 1.79649 0 -1.03369 1.79649 0 -0.768561 1.70018 0 -2.30513 0.394057 0 -3.64191 9.87776 0 -3.64191 9.87776 0 -2.30513 0.394057 0 
0.123723 0.28 0 0 -0.773634 1.70102 4.62093e-17 -1.04219 1.81917 -4.62093e-17 -1.04219 1.81917 0 -0.773634 1.70102 0 -2.53633 0.416684 2.31047e-14 -4.24855 11.3377 -2.31047e-14 -4.24855 11.3377 0 -2.53633 0.416684 0 
0.125219 0.28 0 0 -0.779143 1.70188 0 -1.05185 1.84469 0 -1.05185 1.84469 0 -0.779143 1.70188 0 -2.75492 0.432366 -2.31047e-14 -4.83142 12.7593 2.31047e-14 -4.83142 12.7593 0 -2.75492 0.432366 0 
0.126724 0.28 0 0 -0.785064 1.70276 0 -1.06255 1.87283 0 -1.06255 1.87283 0 -0.785064 1.70276 0 -2.96046 0.44092 0 -5.34636 14.0706 0 -5.34636 14.0706 0 -2.96046 0.44092 0 
0.128237 0.28 0 0 -0.791369 1.70365 5.10219e-17 -1.07404 1.90322 -5.10219e-17 -1.07404 1.90322 0 -0.791369 1.70365 0 -3.15256 0.442244 2.5511e-14 -5.74522 15.1939 -2.5511e-14 -5.74522 15.1939 0 -3.15256 0.442244 0 
0.129759 0.28 0 0 -0.798031 1.70452 0 -1.086 1.93532 0 -1.086 1.93532 0 -0.798031 1.70452 0 -3.33082 0.436322 -2.5511e-14 -5.97881 16.0504 2.5511e-14 -5.97881 16.0504 0 -3.33082 0.436322 0 
0.131289 0.28 0 0 -0.805021 1.70537 0 -1.098 1.96845 0 -1.098 1.96845 0 -0.805021 1.70537 0 -3.49491 0.42322 0 -6.00038 16.5655 0 -6.00038 16.5655 0 -3.49491 0.42322 0 
0.132828 0.28 0 0 -0.81231 1.70617 0 -1.10954 2.0018 0 -1.10954 2.0018 0 -0.81231 1.70617 0 -3.64451 0.403085 0 -5.76953 16.6746 0 -5.76953 16.6746 0 -3.64451 0.403085 0 
0.134375 0.28 0 0 -0.819869 1.70692 0 -1.12005 2.03445 0 -1.12005 2.03445 0 -0.819869 1.70692 0 -3.77933 0.376143 0 -5.25633 16.328 0 -5.25633 16.328 0 -3.77933 0.376143 0 
0.135931 0.28 0 0 -0.827667 1.70761 0 -1.12894 2.06544 0 -1.12894 2.06544 0 -0.827667 1.70761 0 -3.89914 0.342701 0 -4.44529 15.4952 0 -4.44529 15.4952 0 -3.89914 0.342701 0 
0.137495 0.28 0 0 -0.835674 1.70822 6.58714e-17 -1.13562 2.09378 -6.58714e-17 -1.13562 2.09378 0 -0.835674 1.70822 0 -4.00373 0.30314 3.29357e-14 -3.33905 14.1686 -3.29357e-14 -3.33905 14.1686 0 -4.00373 0.30314 0 
0.139067 0.28 0 0 -0.84386 1.70873 0 -1.13954 2.11851 0 -1.13954 2.11851 0 -0.84386 1.70873 0 -4.09292 0.257916 -3.29357e-14 -1.96087 12.365 3.29357e-14 -1.96087 12.365 0 -4.09292 0.257916 0 
0.140648 0.28 0 0 -0.852193 1.70915 0 -1.14025 2.13876 0 -1.14025 2.13876 0 -0.852193 1.70915 0 -4.16661 0.207554 0 -0.355386 10.1263 0 -0.355386 10.1263 0 -4.16661 0.207554 0 
0.142237 0.28 0 0 -0.860643 1.70945 -7.2072e-17 -1.13742 2.1538 7.2072e-17 -1.13742 2.1538 0 -0.860643 1.70945 0 -4.2247 0.152645 -3.6036e-14 1.41325 7.51875 3.6036e-14 1.41325 7.51875 0 -4.2247 0.152645 0 
0.143835 0.28 0 0 -0.869177 1.70964 0 -1.13089 2.16306 0 -1.13089 2.16306 0 -0.869177 1.70964 0 -4.26716 0.0938442 3.6036e-14 3.26638 4.62975 -3.6036e-14 3.26638 4.62975 0 -4.26716 0.0938442 0 
0.145441 0.28 0 0 -0.877765 1.7097 0 -1.12065 2.16619 0 -1.12065 2.16619 0 -0.877765 1.7097 0 -4.294 0.0318625 0 5.11855 1.56362 0 5.11855 1.56362 0 -4.294 0.0318625 0 
0.147056 0.28 0 0 -0.886376 1.70964 0 -1.10688 2.16306 0 -1.10688 2.16306 0 -0.886376 1.70964 0 -4.30528 -0.0325359 0 6.88665 -1.56442 0 6.88665 -1.56442 0 -4.30528 -0.0325359 0 
0.148679 0.28 0 0 -0.894978 1.70944 0 -1.08988 2.15379 0 -1.08988 2.15379 0 -0.894978 1.70944 0 -4.30108 -0.0985406 0 8.49832 -4.63531 0 8.49832 -4.63531 0 -4.30108 -0.0985406 0 
0.15031 0.28 0 0 -0.903541 1.70911 0 -1.07009 2.13872 0 -1.07009 2.13872 0 -0.903541 1.70911 0 -4.28156 -0.165301 0 9.89785 -7.53356 0 9.89785 -7.53356 0 -4.28156 -0.165301 0 
0.15195 0.28 0 0 -0.912035 1.70865 0 -1.04799 2.11841 0 -1.04799 2.11841 0 -0.912035 1.70865 0 -4.24688 -0.231932 0 11.0483 -10.1543 0 11.0483 -10.1543 0 -4.24688 -0.231932 0 
0.153598 0.28 0 0 -0.920429 1.70805 0 -1.02413 2.09359 0 -1.02413 2.09359 0 -0.920429 1.70805 0 -4.19727 -0.297524 0 11.9305 -12.4096 0 11.9305 -12.4096 0 -4.19727 -0.297524 0 
0.155254 0.28 0 0 -0.928695 1.70733 0 -0.99905 2.06513 0 -0.99905 2.06513 0 -0.928695 1.70733 0 -4.13299 -0.361148 0 12.5398 -14.2325 0 12.5398 -14.2325 0 -4.13299 -0.361148 0 
0.156919 0.28 0 0 -0.936804 1.70649 -6.0545e-17 -0.973285 2.03397 6.0545e-17 -0.973285 2.03397 0 -0.936804 1.70649 0 -4.0543 -0.421865 -3.02725e-14 12.8826 -15.5804 3.02725e-14 12.8826 -15.5804 0 -4.0543 -0.421865 0 
0.158592 0.28 0 0 -0.944727 1.70553 0 -0.947338 2.0011 0 -0.947338 2.0011 0 -0.944727 1.70553 0 -3.96152 -0.478735 3.02725e-14 12.9732 -16.4361 -3.02725e-14 12.9732 -16.4361 0 -3.96152 -0.478735 0 
0.160274 0.28 0 0 -0.952437 1.70447 0 -0.921674 1.96748 0 -0.921674 1.96748 0 -0.952437 1.70447 0 -3.85497 -0.530826 0 12.8323 -16.8068 0 12.8323 -16.8068 0 -3.85497 -0.530826 0 
0.161963 0.28 0 0 -0.959907 1.70331 0 -0.896704 1.93404 0 -0.896704 1.93404 0 -0.959907 1.70331 0 -3.73498 -0.577224 0 12.485 -16.7225 0 12.485 -16.7225 0 -3.73498 -0.577224 0 
0.163661 0.28 0 0 -0.967111 1.70208 -5.10219e-17 -0.872782 1.90157 5.10219e-17 -0.872782 1.90157 0 -0.967111 1.70208 0 -3.60188 -0.617043 -2.5511e-14 11.9607 -16.2325 2.5511e-14 11.9607 -16.2325 0 -3.60188 -0.617043 0 
0.165368 0.28 0 0 -0.974023 1.70078 0 -0.850199 1.87077 0 -0.850199 1.87077 0 -0.974023 1.70078 0 -3.456 -0.649436 2.5511e-14 11.2916 -15.4009 -2.5511e-14 11.2916 -15.4009 0 -3.456 -0.649436 0 
0.167082 0.28 0 0 -0.980618 1.69943 0 -0.829176 1.84217 0 -0.829176 1.84217 0 -0.980618 1.69943 0 -3.29764 -0.673605 0 10.5117 -14.3017 0 10.5117 -14.3017 0 -3.29764 -0.673605 0 
0.168805 0.28 0 0 -0.986872 1.69805 0 -0.809866 1.81614 0 -0.809866 1.81614 0 -0.986872 1.69805 0 -3.1271 -0.688818 0 9.65512 -13.0131 0 9.65512 -13.0131 0 -3.1271 -0.688818 0 
0.170536 0.28 0 0 -0.992761 1.69667 4.5052e-17 -0.792357 1.79292 -4.5052e-17 -0.792357 1.79292 0 -0.992761 1.69667 0 -2.94459 -0.69441 2.2526e-14 8.75442 -11.6122 -2.2526e-14 8.75442 -11.6122 0 -2.94459 -0.69441 0 
0.172276 0.28 0 0 -0.998262 1.69529 0 -0.776679 1.77258 0 -0.776679 1.77258 0 -0.998262 1.69529 0 -2.75032 -0.68981 -2.2526e-14 7.83875 -10.1698 2.2526e-14 7.83875 -10.1698 0 -2.75032 -0.68981 0 
0.174024 0.28 0 0 -1.00335 1.69394 0 -0.762814 1.75508 0 -0.762814 1.75508 0 -1.00335 1.69394 0 -2.54441 -0.674543 0 6.93247 -8.74716 0 6.93247 -8.74716 0 -2.54441 -0.674543 0 
0.17578 0.28 0 0 -1.008 1.69264 0 -0.750706 1.7403 0 -0.750706 1.7403 0 -1.008 1.69264 0 -2.32689 -0.648247 0 6.05425 -7.39279 0 6.05425 -7.39279 0 -2.32689 -0.648247 0 
0.177544 0.28 0 0 -1.0122 1.69142 0 -0.740273 1.72801 0 -0.740273 1.72801 0 -1.0122 1.69142 0 -2.09774 -0.610692 0 5.21668 -6.14178 0 5.21668 -6.14178 0 -2.09774 -0.610692 0 
0.179316 0.28 0 0 -1.01591 1.6903 0 -0.731419 1.71798 0 -0.731419 1.71798 0 -1.01591 1.6903 0 -1.85679 -0.561788 0 4.42658 -5.01594 0 4.42658 -5.01594 0 -1.85679 -0.561788 0 
0.181097 0.28 0 0 -1.01912 1.68929 0 -0.724048 1.70993 0 -0.724048 1.70993 0 -1.01912 1.68929 0 -1.60379 -0.501605 0 3.68561 -4.02516 0 3.68561 -4.02516 0 -1.60379 -0.501605 0 
0.182886 0.28 0 0 -1.0218 1.68843 0 -0.718065 1.70359 0 -0.718065 1.70359 0 -1.0218 1.68843 0 -1.33834 -0.430389 0 2.99137 -3.16951 0 2.99137 -3.16951 0 -1.33834 -0.430389 0 
0.184683 0.28 0 0 -1.02392 1.68773 0 -0.713388 1.69871 0 -0.713388 1.69871 0 -1.02392 1.68773 0 -1.0599 -0.348576 0 2.3385 -2.44172 0 2.3385 -2.44172 0 -1.0599 -0.348576 0 
0.186488 0.28 0 0 -1.02545 1.68722 -4.08563e-17 -0.709949 1.69505 4.08563e-17 -0.709949 1.69505 0 -1.02545 1.68722 0 -0.767756 -0.256814 -2.04281e-14 1.71981 -1.8296 2.04281e-14 1.71981 -1.8296 0 -0.767756 -0.256814 0 
0.188302 0.28 0 0 -1.02975 1.69241 0 -0.70532 1.68691 0 -0.70532 1.68691 0 -1.02975 1.69241 0 -2.15049 2.59618 2.04281e-14 2.31433 -4.07049 -2.04281e-14 2.31433 -4.07049 0 -2.15049 2.59618 0 
0.190124 0.28 0 0 -1.03147 1.69464 0 -0.704932 1.68681 0 -0.704932 1.68681 0 -1.03147 1.69464 0 -0.857935 1.1135 0 0.193887 -0.0486599 0 0.193887 -0.0486599 0 -0.857935 1.1135 0 
0.191953 0.28 0 0 -1.03306 1.6979 0 -0.705394 1.68693 0 -0.705394 1.68693 0 -1.03306 1.6979 0 -0.795995 1.6303 0 -0.230609 0.0578655 0 -0.230609 0.0578655 0 -0.795995 1.6303 0 
0.193791 0.28 0 0 -1.03468 1.70241 0 -0.706679 1.68725 0 -0.706679 1.68725 0 -1.03468 1.70241 0 -0.808525 2.25316 0 -0.642826 0.160596 0 -0.642826 0.160596 0 -0.808525 2.25316 0 
0.195638 0.28 0 0 -1.03649 1.7084 0 -0.708763 1.68776 0 -0.708763 1.68776 0 -1.03649 1.7084 0 -0.903677 2.99632 0 -1.04196 0.258103 0 -1.04196 0.258103 0 -0.903677 2.99632 0 
0.197492 0.28 0 0 -1.03866 1.71614 0 -0.711618 1.68846 0 -0.711618 1.68846 0 -1.03866 1.71614 0 -1.08771 3.87131 0 -1.42728 0.349105 0 -1.42728 0.349105 0 -1.08771 3.87131 0 
0.199355 0.28 0 0 -1.04139 1.72591 0 -0.715214 1.68933 0 -0.715214 1.68933 0 -1.04139 1.72591 0 -1.36366 4.88467 0 -1.79806 0.432456 0 -1.79806 0.432456 0 -1.36366 4.88467 0 
0.201225 0.28 0 0 -1.04485 1.73798 0 -0.719521 1.69034 0 -0.719521 1.69034 0 -1.04485 1.73798 0 -1.72989 6.03557 0 -2.15364 0.507155 0 -2.15364 0.507155 0 -1.72989 6.03557 0 
0.203104 0.28 0 4.32965e-17 -1.04921 1.75261 0 -0.724508 1.69149 0 -0.724508 1.69149 -4.32965e-17 -1.04921 1.75261 2.16482e-14 -2.17861 7.31331 0 -2.49337 0.572339 0 -2.49337 0.572339 -2.16482e-14 -2.17861 7.31331 0 
0.204991 0.28 0 0 -1.0546 1.77 0 -0.730141 1.69274 0 -0.730141 1.69274 0 -1.0546 1.77 -2.16482e-14 -2.69467 8.69531 0 -2.81664 0.627288 0 -2.81664 0.627288 2.16482e-14 -2.69467 8.69531 0 
0.206886 0.28 0 0 -1.06111 1.79029 0 -0.736387 1.69408 0 -0.736387 1.69408 0 -1.06111 1.79029 0 -3.25472 10.1457 0 -3.12287 0.671424 0 -3.12287 0.671424 0 -3.25472 10.1457 0 
0.208789 0.28 0 0 -1.06876 1.81352 0 -0.74321 1.69549 0 -0.74321 1.69549 0 -1.06876 1.81352 0 -3.82704 11.6153 0 -3.41153 0.704308 0 -3.41153 0.704308 0 -3.82704 11.6153 0 
0.2107 0.28 0 -4.75803e-17 -1.0775 1.83961 0 -0.750574 1.69694 0 -0.750574 1.69694 4.75803e-17 -1.0775 1.83961 -2.37902e-14 -4.3721 13.0422 0 -3.68211 0.725636 0 -3.68211 0.725636 2.37902e-14 -4.3721 13.0422 0 
0.21262 0.28 0 0 -1.08719 1.86832 0 -0.758442 1.69841 0 -0.758442 1.69841 0 -1.08719 1.86832 2.37902e-14 -4.84402 14.3551 0 -3.93413 0.735246 0 -3.93413 0.735246 -2.37902e-14 -4.84402 14.3551 0 
0.214547 0.28 0 0 -1.09758 1.89927 0 -0.766777 1.69988 0 -0.766777 1.69988 0 -1.09758 1.89927 0 -5.19286 15.4764 0 -4.16717 0.733108 0 -4.16717 0.733108 0 -5.19286 15.4764 0 
0.216482 0.28 0 5.31026e-17 -1.10831 1.93192 0 -0.775538 1.70132 0 -0.775538 1.70132 -5.31026e-17 -1.10831 1.93192 2.65513e-14 -5.36766 16.3275 0 -4.38082 0.719322 0 -4.38082 0.719322 -2.65513e-14 -5.36766 16.3275 0 
0.218426 0.28 0 0 -1.11895 1.96559 0 -0.784688 1.70271 0 -0.784688 1.70271 0 -1.11895 1.96559 -2.65513e-14 -5.32015 16.8341 0 -4.57474 0.694122 0 -4.57474 0.694122 2.65513e-14 -5.32015 16.8341 0 
0.220377 0.28 0 0 -1.12897 1.99946 0 -0.794185 1.70402 0 -0.794185 1.70402 0 -1.12897 1.99946 0 -5.00887 16.9314 0 -4.74863 0.657862 0 -4.74863 0.657862 0 -5.00887 16.9314 0 
0.222337 0.28 0 0 -1.13778 2.03259 0 -0.80399 1.70525 0 -0.80399 1.70525 0 -1.13778 2.03259 0 -4.40366 16.5697 0 -4.90224 0.611024 0 -4.90224 0.611024 0 -4.40366 16.5697 0 
0.224305 0.28 0 -6.32358e-17 -1.14476 2.06403 0 -0.81406 1.70635 0 -0.81406 1.70635 6.32358e-17 -1.14476 2.06403 -3.16179e-14 -3.4901 15.7182 0 -5.03537 0.554202 0 -5.03537 0.554202 3.16179e-14 -3.4901 15.7182 0 
0.22628 0.28 0 0 -1.1493 2.09277 0 -0.824356 1.70733 0 -0.824356 1.70733 0 -1.1493 2.09277 3.16179e-14 -2.2735 14.3688 0 -5.14789 0.488105 0 -5.14789 0.488105 -3.16179e-14 -2.2735 14.3688 0 
0.228264 0.28 0 -6.83194e-17 -1.15087 2.11784 0 -0.834836 1.70816 0 -0.834836 1.70816 6.83194e-17 -1.15087 2.11784 -3.41597e-14 -0.781754 12.538 0 -5.23972 0.413546 0 -5.23972 0.413546 3.41597e-14 -0.781754 12.538 0 
0.230256 0.28 0 0 -1.149 2.13838 0 -0.845457 1.70882 0 -0.845457 1.70882 0 -1.149 2.13838 3.41597e-14 0.933928 10.2676 0 -5.31087 0.331439 0 -5.31087 0.331439 -3.41597e-14 0.933928 10.2676 0 
0.232256 0.28 0 0 -1.1434 2.15363 0 -0.85618 1.70931 0 -0.85618 1.70931 0 -1.1434 2.15363 0 2.80146 7.62381 0 -5.36139 0.242791 0 -5.36139 0.242791 0 2.80146 7.62381 0 
0.234263 0.28 0 -7.31104e-17 -1.13393 2.16302 0 -0.866963 1.7096 0 -0.866963 1.7096 7.31104e-17 -1.13393 2.16302 -3.65552e-14 4.73386 4.69468 0 -5.39141 0.148693 0 -5.39141 0.148693 3.65552e-14 4.73386 4.69468 0 
0.236279 0.28 0 0 -1.12065 2.16619 0 -0.877765 1.7097 0 -0.877765 1.7097 0 -1.12065 2.16619 3.65552e-14 6.63849 1.58564 0 -5.40114 0.050312 0 -5.40114 0.050312 -3.65552e-14 6.63849 1.58564 0 
0.238303 0.28 0 0 -1.1038 2.16302 0 -0.888547 1.7096 0 -0.888547 1.7096 0 -1.1038 2.16302 0 8.4276 -1.5866 0 -5.39084 -0.0511159 0 -5.39084 -0.0511159 0 8.4276 -1.5866 0 
0.240335 0.28 0 0 -1.08374 2.15361 0 -0.899269 1.70929 0 -0.899269 1.70929 0 -1.08374 2.15361 0 10.0279 -4.70132 0 -5.36088 -0.154299 0 -5.36088 -0.154299 0 10.0279 -4.70132 0 
0.242374 0.28 0 0 -1.06097 2.13833 0 -0.909892 1.70878 0 -0.909892 1.70878 0 -1.06097 2.13833 0 11.3865 -7.64148 0 -5.31165 -0.257898 0 -5.31165 -0.257898 0 11.3865 -7.64148 0 
0.244422 0.28 0 0 -1.03602 2.11773 0 -0.920379 1.70806 0 -0.920379 1.70806 0 -1.03602 2.11773 0 12.4725 -10.301 0 -5.24363 -0.360538 0 -5.24363 -0.360538 0 12.4725 -10.301 0 
0.246477 0.28 0 0 -1.00948 2.09255 0 -0.930694 1.70713 0 -0.930694 1.70713 0 -1.00948 2.09255 0 13.2742 -12.5912 0 -5.15736 -0.460822 0 -5.15736 -0.460822 0 13.2742 -12.5912 0 
0.248541 0.28 0 0 -0.981885 2.06366 0 -0.940801 1.70602 0 -0.940801 1.70602 0 -0.981885 2.06366 0 13.7951 -14.4449 0 -5.05342 -0.557338 0 -5.05342 -0.557338 0 13.7951 -14.4449 0 
0.250612 0.28 0 0 -0.953789 2.03202 0 -0.950666 1.70472 0 -0.950666 1.70472 0 -0.953789 2.03202 0 14.0483 -15.8197 0 -4.93244 -0.648678 0 -4.93244 -0.648678 0 14.0483 -15.8197 0 
0.252692 0.28 0 5.79085e-17 -0.925682 1.99862 0 -0.960256 1.70326 0 -0.960256 1.70326 -5.79085e-17 -0.925682 1.99862 2.89543e-14 14.0534 -16.6985 0 -4.79507 -0.733449 0 -4.79507 -0.733449 -2.89543e-14 14.0534 -16.6985 0 
0.254779 0.28 0 0 -0.898014 1.96444 0 -0.96954 1.70163 0 -0.96954 1.70163 0 -0.898014 1.96444 -2.89543e-14 13.834 -17.089 0 -4.642 -0.810286 0 -4.642 -0.810286 2.89543e-14 13.834 -17.089 0 
0.256874 0.28 0 0 -0.87118 1.9304 0 -0.978488 1.69988 0 -0.978488 1.69988 0 -0.87118 1.9304 0 13.417 -17.0212 0 -4.47391 -0.877864 0 -4.47391 -0.877864 0 13.417 -17.0212 0 
0.258977 0.28 0 0 -0.845518 1.89731 0 -0.987071 1.69801 0 -0.987071 1.69801 0 -0.845518 1.89731 0 12.8313 -16.5446 0 -4.2915 -0.934922 0 -4.2915 -0.934922 0 12.8313 -16.5446 0 
0.261088 0.28 0 -4.91812e-17 -0.821302 1.86586 0 -0.995261 1.69605 0 -0.995261 1.69605 4.91812e-17 -0.821302 1.86586 -2.45906e-14 12.1081 -15.7232 0 -4.09541 -0.980266 0 -4.09541 -0.980266 2.45906e-14 12.1081 -15.7232 0 
0.263207 0.28 0 0 -0.798742 1.8366 0 -1.00303 1.69402 0 -1.00303 1.69402 0 -0.798742 1.8366 2.45906e-14 11.2796 -14.6307 0 -3.88628 -1.0128 0 -3.88628 -1.0128 -2.45906e-14 11.2796 -14.6307 0 
0.265334 0.28 0 0 -0.777986 1.80991 0 -1.01036 1.69196 0 -1.01036 1.69196 0 -0.777986 1.80991 0 10.378 -13.3449 0 -3.66466 -1.03151 0 -3.66466 -1.03151 0 10.378 -13.3449 0 
0.267469 0.28 0 0 -0.759119 1.78603 0 -1.01723 1.68989 0 -1.01723 1.68989 0 -0.759119 1.78603 0 9.43356 -11.9425 0 -3.43107 -1.03554 0 -3.43107 -1.03554 0 9.43356 -11.9425 0 
0.269611 0.28 0 0 -0.742172 1.76504 0 -1.0236 1.68784 0 -1.0236 1.68784 0 -0.742172 1.76504 0 8.4735 -10.494 0 -3.18589 -1.02414 0 -3.18589 -1.02414 0 8.4735 -10.494 0 
0.271762 0.28 0 -4.32965e-17 -0.727131 1.74692 0 -1.02946 1.68585 0 -1.02946 1.68585 4.32965e-17 -0.727131 1.74692 -2.16482e-14 7.52041 -9.06026 0 -2.92944 -0.996729 0 -2.92944 -0.996729 2.16482e-14 7.52041 -9.06026 0 
0.27392 0.28 0 0 -0.713948 1.73154 0 -1.03478 1.68394 0 -1.03478 1.68394 0 -0.713948 1.73154 2.16482e-14 6.5915 -7.68957 0 -2.66187 -0.952909 0 -2.66187 -0.952909 -2.16482e-14 6.5915 -7.68957 0 
0.276086 0.28 0 0 -0.702552 1.7187 0 -1.03955 1.68216 0 -1.03955 1.68216 0 -0.702552 1.7187 0 5.69824 -6.41692 0 -2.3832 -0.892464 0 -2.3832 -0.892464 0 5.69824 -6.41692 0 
0.27826 0.28 0 0 -0.692859 1.70818 0 -1.04373 1.68053 0 -1.04373 1.68053 0 -0.692859 1.70818 0 4.84663 -5.2641 0 -2.09329 -0.815398 0 -2.09329 -0.815398 0 4.84663 -5.2641 0 
0.280442 0.28 0 0 -0.684783 1.69969 0 -1.04732 1.67908 0 -1.04732 1.67908 0 -0.684783 1.69969 0 4.03784 -4.24112 0 -1.79179 -0.72195 0 -1.79179 -0.72195 0 4.03784 -4.24112 0 
0.282631 0.28 0 -4.11767e-17 -0.678244 1.693 0 -1.05027 1.67786 0 -1.05027 1.67786 4.11767e-17 -0.678244 1.693 -2.05884e-14 3.26924 -3.34829 0 -1.47817 -0.612613 0 -1.47817 -0.612613 2.05884e-14 3.26924 -3.34829 0 
0.284829 0.28 0 0 -0.673174 1.68784 0 -1.05258 1.67688 0 -1.05258 1.67688 0 -0.673174 1.68784 2.05884e-14 2.53542 -2.57864 0 -1.15167 -0.488161 0 -1.15167 -0.488161 -2.05884e-14 2.53542 -2.57864 0 
0.287034 0.28 0 4.08563e-17 -0.669515 1.684 0 -1.0542 1.67618 0 -1.0542 1.67618 -4.08563e-17 -0.669515 1.684 2.04281e-14 1.82937 -1.92044 0 -0.811269 -0.349672 0 -0.811269 -0.349672 -2.04281e-14 1.82937 -1.92044 0 
0.289247 0.28 0 0 -0.664962 1.67578 0 -1.05859 1.68128 0 -1.05859 1.68128 0 -0.664962 1.67578 -2.04281e-14 2.27625 -4.10807 0 -2.19409 2.55013 0 -2.19409 2.55013 2.04281e-14 2.27625 -4.10807 0 
0.291468 0.28 0 0 -0.664705 1.67571 0 -1.06023 1.68352 0 -1.06023 1.68352 0 -0.664705 1.67571 0 0.128832 -0.0386974 0 -0.823819 1.12196 0 -0.823819 1.12196 0 0.128832 -0.0386974 0 
0.293696 0.28 0 0 -0.665498 1.67594 0 -1.06168 1.6869 0 -1.06168 1.6869 0 -0.665498 1.67594 0 -0.396674 0.119022 0 -0.721151 1.68942 0 -0.721151 1.68942 0 -0.396674 0.119022 0 
0.295932 0.28 0 0 -0.667309 1.67648 0 -1.06307 1.69162 0 -1.06307 1.69162 0 -0.667309 1.67648 0 -0.905291 0.270218 0 -0.696302 2.36008 0 -0.696302 2.36008 0 -0.905291 0.270218 0 
0.298177 0.28 0 0 -0.670101 1.67731 0 -1.06458 1.69792 0 -1.06458 1.69792 0 -0.670101 1.67731 0 -1.39609 0.412849 0 -0.757017 3.14755 0 -0.757017 3.14755 0 -1.39609 0.412849 0 
0.300428 0.28 0 0 -0.673837 1.6784 0 -1.0664 1.70604 0 -1.0664 1.70604 0 -0.673837 1.6784 0 -1.86818 0.545101 0 -0.909133 4.06281 0 -0.909133 4.06281 0 -1.86818 0.545101 0 
0.302688 0.28 0 0 -0.678479 1.67973 0 -1.06871 1.71627 0 -1.06871 1.71627 0 -0.678479 1.67973 0 -2.32079 0.665389 0 -1.15518 5.11198 0 -1.15518 5.11198 0 -2.32079 0.665389 0 
0.304955 0.28 0 0 -0.683985 1.68128 0 -1.0717 1.72886 0 -1.0717 1.72886 0 -0.683985 1.68128 0 -2.7531 0.772336 0 -1.49292 6.29384 0 -1.49292 6.29384 0 -2.7531 0.772336 0 
0.30723 0.28 0 0 -0.690314 1.68301 -4.32965e-17 -1.07553 1.74405 4.32965e-17 -1.07553 1.74405 0 -0.690314 1.68301 0 -3.16443 0.864797 -2.16482e-14 -1.91383 7.59749 2.16482e-14 -1.91383 7.59749 0 -3.16443 0.864797 0 
0.309513 0.28 0 0 -0.697422 1.68489 0 -1.08033 1.76205 0 -1.08033 1.76205 0 -0.697422 1.68489 0 -3.55405 0.941826 2.16482e-14 -2.40188 9.0002 -2.16482e-14 -2.40188 9.0002 0 -3.55405 0.941826 0 
0.311804 0.28 0 0 -0.705265 1.68689 0 -1.08619 1.78298 0 -1.08619 1.78298 0 -0.705265 1.68689 0 -3.92134 1.0027 0 -2.93264 10.4661 0 -2.93264 10.4661 0 -3.92134 1.0027 0 
0.314102 0.28 0 0 -0.713796 1.68899 0 -1.09314 1.80688 0 -1.09314 1.80688 0 -0.713796 1.68899 0 -4.26566 1.04689 0 -3.47316 11.9461 0 -3.47316 11.9461 0 -4.26566 1.04689 0 
0.316408 0.28 0 0 -0.722969 1.69114 4.75803e-17 -1.10111 1.83363 -4.75803e-17 -1.10111 1.83363 0 -0.722969 1.69114 0 -4.58645 1.07409 2.37902e-14 -3.98248 13.3786 -2.37902e-14 -3.98248 13.3786 0 -4.58645 1.07409 0 
0.318721 0.28 0 0 -0.732735 1.6933 0 -1.10993 1.86302 0 -1.10993 1.86302 0 -0.732735 1.6933 0 -4.88319 1.08418 -2.37902e-14 -4.41315 14.6925 2.37902e-14 -4.41315 14.6925 0 -4.88319 1.08418 0 
0.321043 0.28 0 0 -0.743046 1.69546 0 -1.11936 1.89464 0 -1.11936 1.89464 0 -0.743046 1.69546 0 -5.15539 1.07722 0 -4.71359 15.8107 0 -4.71359 15.8107 0 -5.15539 1.07722 0 
0.323371 0.28 0 0 -0.753851 1.69757 -5.31026e-17 -1.12902 1.92795 5.31026e-17 -1.12902 1.92795 0 -0.753851 1.69757 0 -5.40261 1.05348 -2.65513e-14 -4.83121 16.6547 2.65513e-14 -4.83121 16.6547 0 -5.40261 1.05348 0 
0.325708 0.28 0 0 -0.7651 1.69959 0 -1.13845 1.96225 0 -1.13845 1.96225 0 -0.7651 1.69959 0 -5.6245 1.01341 2.65513e-14 -4.71625 17.1504 -2.65513e-14 -4.71625 17.1504 0 -5.6245 1.01341 0 
0.328052 0.28 0 0 -0.776742 1.70151 0 -1.14711 1.99672 0 -1.14711 1.99672 0 -0.776742 1.70151 0 -5.82073 0.957622 0 -4.32626 17.2332 0 -4.32626 17.2332 0 -5.82073 0.957622 0 
0.330404 0.28 0 0 -0.788724 1.70328 0 -1.15437 2.03042 0 -1.15437 2.03042 0 -0.788724 1.70328 0 -5.99108 0.886912 0 -3.63077 16.8532 0 -3.63077 16.8532 0 -5.99108 0.886912 0 
0.332764 0.28 0 0 -0.800995 1.70489 6.32358e-17 -1.1596 2.06238 -6.32358e-17 -1.1596 2.06238 0 -0.800995 1.70489 0 -6.13537 0.802226 3.16179e-14 -2.61628 15.9794 -3.16179e-14 -2.61628 15.9794 0 -6.13537 0.802226 0 
0.335131 0.28 0 0 -0.813502 1.7063 0 -1.16218 2.09159 0 -1.16218 2.09159 0 -0.813502 1.7063 0 -6.25353 0.704667 -3.16179e-14 -1.29058 14.603 3.16179e-14 -1.29058 14.603 0 -6.25353 0.704667 0 
0.337506 0.28 0 0 -0.826193 1.70749 6.83194e-17 -1.16155 2.11707 -6.83194e-17 -1.16155 2.11707 0 -0.826193 1.70749 0 -6.34557 0.595481 3.41597e-14 0.314018 12.7402 -3.41597e-14 0.314018 12.7402 0 -6.34557 0.595481 0 
0.339888 0.28 0 0 -0.839016 1.70844 0 -1.15727 2.13793 0 -1.15727 2.13793 0 -0.839016 1.70844 0 -6.4116 0.476044 -3.41597e-14 2.14002 10.4325 3.41597e-14 2.14002 10.4325 0 -6.4116 0.476044 0 
0.342279 0.28 0 0 -0.85192 1.70913 0 -1.14906 2.15343 0 -1.14906 2.15343 0 -0.85192 1.70913 0 -6.45182 0.347856 0 4.10753 7.74622 0 4.10753 7.74622 0 -6.45182 0.347856 0 
0.344676 0.28 0 0 -0.864853 1.70956 7.31104e-17 -1.13682 2.16297 -7.31104e-17 -1.13682 2.16297 0 -0.864853 1.70956 0 -6.46656 0.212525 3.65552e-14 6.12136 4.77024 -3.65552e-14 6.12136 4.77024 0 -6.46656 0.212525 0 
0.347082 0.28 0 0 -0.877765 1.7097 0 -1.12065 2.16619 0 -1.12065 2.16619 0 -0.877765 1.7097 0 -6.45623 0.0717548 -3.65552e-14 8.0816 1.61124 3.65552e-14 8.0816 1.61124 0 -6.45623 0.0717548 0 
0.349495 0.28 0 0 -0.890608 1.70956 0 -1.10086 2.16296 0 -1.10086 2.16296 0 -0.890608 1.70956 0 -6.42136 -0.0726672 0 9.89577 -1.61233 0 9.89577 -1.61233 0 -6.42136 -0.0726672 0 
0.351915 0.28 0 0 -0.903333 1.70912 0 -1.07788 2.15341 0 -1.07788 2.15341 0 -0.903333 1.70912 0 -6.36258 -0.218888 0 11.4894 -4.77778 0 11.4894 -4.77778 0 -6.36258 -0.218888 0 
0.354343 0.28 0 0 -0.915894 1.70839 0 -1.05226 2.13788 0 -1.05226 2.13788 0 -0.915894 1.70839 0 -6.28062 -0.365002 0 12.8123 -7.76627 0 12.8123 -7.76627 0 -6.28062 -0.365002 0 
0.356779 0.28 0 0 -0.928247 1.70737 0 -1.02458 2.11693 0 -1.02458 2.11693 0 -0.928247 1.70737 0 -6.17632 -0.509069 0 13.8392 -10.4704 0 13.8392 -10.4704 0 -6.17632 -0.509069 0 
0.359222 0.28 0 0 -0.940348 1.70607 0 -0.995447 2.09133 0 -0.995447 2.09133 0 -0.940348 1.70607 0 -6.05058 -0.649131 0 14.5661 -12.8005 0 14.5661 -12.8005 0 -6.05058 -0.649131 0 
0.361673 0.28 0 0 -0.952157 1.70451 0 -0.965439 2.06196 0 -0.965439 2.06196 0 -0.952157 1.70451 0 -5.90438 -0.783229 0 15.004 -14.6893 0 15.004 -14.6893 0 -5.90438 -0.783229 0 
0.364131 0.28 0 0 -0.963634 1.70269 0 -0.935094 2.02977 0 -0.935094 2.02977 0 -0.963634 1.70269 0 -5.73879 -0.909423 0 15.1729 -16.0945 0 15.1729 -16.0945 0 -5.73879 -0.909423 0 
0.366597 0.28 0 0 -0.974744 1.70064 -5.79085e-17 -0.904899 1.99577 5.79085e-17 -0.904899 1.99577 0 -0.974744 1.70064 0 -5.55487 -1.02581 -2.89543e-14 15.0974 -16.9993 2.89543e-14 15.0974 -16.9993 0 -5.55487 -1.02581 0 
0.36907 0.28 0 0 -0.985452 1.69838 0 -0.875291 1.96094 0 -0.875291 1.96094 0 -0.985452 1.69838 0 -5.35376 -1.13053 2.89543e-14 14.8042 -17.4118 -2.89543e-14 14.8042 -17.4118 0 -5.35376 -1.13053 0 
0.371551 0.28 0 0 -0.995725 1.69593 0 -0.846648 1.92622 0 -0.846648 1.92622 0 -0.995725 1.69593 0 -5.13656 -1.22183 0 14.3212 -17.3624 0 14.3212 -17.3624 0 -5.13656 -1.22183 0 
0.37404 0.28 0 0 -1.00553 1.69334 0 -0.819293 1.89242 0 -0.819293 1.89242 0 -1.00553 1.69334 0 -4.90439 -1.29801 0 13.6775 -16.9006 0 13.6775 -16.9006 0 -4.90439 -1.29801 0 
0.376536 0.28 0 0 -1.01485 1.69062 4.91812e-17 -0.793487 1.86024 -4.91812e-17 -0.793487 1.86024 0 -1.01485 1.69062 0 -4.6583 -1.35751 2.45906e-14 12.9031 -16.0903 -2.45906e-14 12.9031 -16.0903 0 -4.6583 -1.35751 0 
0.379039 0.28 0 0 -1.02365 1.68782 0 -0.76943 1.83023 0 -0.76943 1.83023 0 -1.02365 1.68782 0 -4.39929 -1.3989 -2.45906e-14 12.0285 -15.0048 2.45906e-14 12.0285 -15.0048 0 -4.39929 -1.3989 0 
0.38155 0.28 0 0 -1.03191 1.68498 0 -0.747262 1.80278 0 -0.747262 1.80278 0 -1.03191 1.68498 0 -4.12827 -1.42091 0 11.0838 -13.7217 0 11.0838 -13.7217 0 -4.12827 -1.42091 0 
0.384069 0.28 0 0 -1.0396 1.68214 0 -0.727068 1.77815 0 -0.727068 1.77815 0 -1.0396 1.68214 0 -3.84604 -1.42244 0 10.0972 -12.317 0 10.0972 -12.317 0 -3.84604 -1.42244 0 
0.386595 0.28 0 0 -1.0467 1.67933 0 -0.70888 1.75643 0 -0.70888 1.75643 0 -1.0467 1.67933 0 -3.55325 -1.40258 0 9.09409 -10.861 0 9.09409 -10.861 0 -3.55325 -1.40258 0 
0.389128 0.28 0 0 -1.0532 1.67661 4.32965e-17 -0.692689 1.7376 -4.32965e-17 -0.692689 1.7376 0 -1.0532 1.67661 0 -3.25038 -1.36065 2.16482e-14 8.09537 -9.41398 -2.16482e-14 8.09537 -9.41398 0 -3.25038 -1.36065 0 
0.391669 0.28 0 0 -1.05908 1.67402 0 -0.678455 1.72155 0 -0.678455 1.72155 0 -1.05908 1.67402 0 -2.93773 -1.29623 -2.16482e-14 7.11686 -8.02414 2.16482e-14 7.11686 -8.02414 0 -2.93773 -1.29623 0 
0.394217 0.28 0 0 -1.06431 1.6716 0 -0.666117 1.7081 0 -0.666117 1.7081 0 -1.06431 1.6716 0 -2.61537 -1.20914 0 6.16903 -6.72631 0 6.16903 -6.72631 0 -2.61537 -1.20914 0 
0.396773 0.28 0 0 -1.06888 1.6694 0 -0.655603 1.69702 0 -0.655603 1.69702 0 -1.06888 1.6694 0 -2.28313 -1.09951 0 5.25713 -5.54231 0 5.25713 -5.54231 0 -2.28313 -1.09951 0 
0.399336 0.28 0 0 -1.07276 1.66746 0 -0.646839 1.68805 0 -0.646839 1.68805 0 -1.07276 1.66746 0 -1.94057 -0.967793 0 4.38188 -4.48228 0 4.38188 -4.48228 0 -1.94057 -0.967793 0 
0.401907 0.28 0 0 -1.07593 1.66584 4.11767e-17 -0.639758 1.68096 -4.11767e-17 -0.639758 1.68096 0 -1.07593 1.66584 0 -1.58696 -0.81478 2.05884e-14 3.54048 -3.54681 -2.05884e-14 3.54048 -3.54681 0 -1.58696 -0.81478 0 
0.404485 0.28 0 0 -1.07837 1.66455 0 -0.634303 1.6755 0 -0.634303 1.6755 0 -1.07837 1.66455 0 -1.22124 -0.641641 -2.05884e-14 2.72755 -2.72934 2.05884e-14 2.72755 -2.72934 0 -1.22124 -0.641641 0 
0.407071 0.28 0 0 -1.08006 1.66365 -4.08563e-17 -0.630431 1.67146 4.08563e-17 -0.630431 1.67146 0 -1.08006 1.66365 0 -0.842034 -0.449948 -2.04281e-14 1.9362 -2.01863 2.04281e-14 1.9362 -2.01863 0 -0.842034 -0.449948 0 
0.409663 0.28 0 0 -1.08452 1.66866 0 -0.625946 1.66317 0 -0.625946 1.66317 0 -1.08452 1.66866 0 -2.23033 2.50344 2.04281e-14 2.24216 -4.14618 -2.04281e-14 2.24216 -4.14618 0 -2.23033 2.50344 0 
0.412264 0.28 0 0 -1.08611 1.67093 0 -0.625817 1.66312 0 -0.625817 1.66312 0 -1.08611 1.67093 0 -0.795261 1.13675 0 0.0646241 -0.0223749 0 0.0646241 -0.0223749 0 -0.795261 1.13675 0 
0.414872 0.28 0 0 -1.08743 1.67446 0 -0.626935 1.66351 0 -0.626935 1.66351 0 -1.08743 1.67446 0 -0.661101 1.76152 0 -0.558922 0.193196 0 -0.558922 0.193196 0 -0.661101 1.76152 0 
0.417487 0.28 0 -4.11767e-17 -1.08865 1.67943 0 -0.629257 1.66431 0 -0.629257 1.66431 4.11767e-17 -1.08865 1.67943 -2.05884e-14 -0.607374 2.48611 0 -1.16108 0.399023 0 -1.16108 0.399023 2.05884e-14 -0.607374 2.48611 0 
0.420109 0.28 0 0 -1.08993 1.68607 0 -0.632739 1.66549 0 -0.632739 1.66549 0 -1.08993 1.68607 2.05884e-14 -0.641349 3.32344 0 -1.74078 0.592383 0 -1.74078 0.592383 -2.05884e-14 -0.641349 3.32344 0 
0.422739 0.28 0 0 -1.09147 1.69464 0 -0.637333 1.66703 0 -0.637333 1.66703 0 -1.09147 1.69464 0 -0.768373 4.28388 0 -2.29705 0.770884 0 -2.29705 0.770884 0 -0.768373 4.28388 0 
0.425376 0.28 0 4.21406e-17 -1.09345 1.70539 0 -0.642991 1.6689 0 -0.642991 1.6689 -4.21406e-17 -1.09345 1.70539 2.10703e-14 -0.990457 5.37307 0 -2.829 0.932457 0 -2.829 0.932457 -2.10703e-14 -0.990457 5.37307 0 
0.428021 0.28 0 -4.26544e-17 -1.09606 1.71857 0 -0.649662 1.67105 0 -0.649662 1.67105 4.26544e-17 -1.09606 1.71857 -4.23975e-14 -1.30478 6.58942 0 -3.33576 1.07533 0 -3.33576 1.07533 4.23975e-14 -1.30478 6.58942 0 
0.430673 0.28 0 -4.32965e-17 -1.09946 1.73441 0 -0.657295 1.67345 0 -0.657295 1.67345 4.32965e-17 -1.09946 1.73441 -3.21044e-16 -1.70214 7.92175 0 -3.8165 1.19804 0 -3.8165 1.19804 3.21044e-16 -1.70214 7.92175 0 
0.433332 0.28 0 0 -1.10379 1.75311 0 -0.665836 1.67605 0 -0.665836 1.67605 0 -1.10379 1.75311 2.16482e-14 -2.16568 9.34721 0 -4.27045 1.29942 0 -4.27045 1.29942 -2.16482e-14 -2.16568 9.34721 0 
0.435999 0.28 0 0 -1.10913 1.77477 0 -0.67523 1.6788 0 -0.67523 1.6788 0 -1.10913 1.77477 0 -2.67002 10.83 0 -4.69688 1.37859 0 -4.69688 1.37859 0 -2.67002 10.83 0 
0.438673 0.28 0 0 -1.11549 1.79941 0 -0.68542 1.68167 0 -0.68542 1.68167 0 -1.11549 1.79941 0 -3.18105 12.3211 0 -5.09509 1.43496 0 -5.09509 1.43496 0 -3.18105 12.3211 0 
0.441354 0.28 0 0 -1.12281 1.82693 0 -0.696349 1.68461 0 -0.696349 1.68461 0 -1.12281 1.82693 0 -3.65657 13.7592 0 -5.46441 1.4682 0 -5.46441 1.4682 0 -3.65657 13.7592 0 
0.444043 0.28 0 0 -1.1309 1.85707 0 -0.707957 1.68757 0 -0.707957 1.68757 0 -1.1309 1.85707 0 -4.04769 15.0736 0 -5.80427 1.47827 0 -5.80427 1.47827 0 -4.04769 15.0736 0 
0.446739 0.28 0 0 -1.13951 1.88945 0 -0.720186 1.6905 0 -0.720186 1.6905 0 -1.13951 1.88945 0 -4.30131 16.1875 0 -6.1141 1.46537 0 -6.1141 1.46537 0 -4.30131 16.1875 0 
0.449442 0.28 0 0 -1.14823 1.92349 0 -0.732972 1.69336 0 -0.732972 1.69336 0 -1.14823 1.92349 0 -4.36331 17.0229 0 -6.3934 1.42996 0 -6.3934 1.42996 0 -4.36331 17.0229 0 
0.452153 0.28 0 0 -1.1566 1.95851 0 -0.746256 1.6961 0 -0.746256 1.6961 0 -1.1566 1.95851 0 -4.18259 17.506 0 -6.64175 1.37272 0 -6.64175 1.37272 0 -4.18259 17.506 0 
0.454871 0.28 0 0 -1.16403 1.99365 0 -0.759974 1.69869 0 -0.759974 1.69869 0 -1.16403 1.99365 0 -3.71562 17.5722 0 -6.85881 1.2946 0 -6.85881 1.2946 0 -3.71562 17.5722 0 
0.457596 0.28 0 0 -1.16989 2.02799 0 -0.774062 1.70108 0 -0.774062 1.70108 0 -1.16989 2.02799 0 -2.93165 17.1713 0 -7.04431 1.19673 0 -7.04431 1.19673 0 -2.93165 17.1713 0 
0.460328 0.28 0 0 -1.17353 2.06054 0 -0.788458 1.70325 0 -0.788458 1.70325 0 -1.17353 2.06054 0 -1.81792 16.2721 0 -7.19811 1.08047 0 -7.19811 1.08047 0 -1.81792 16.2721 0 
0.463068 0.28 0 0 -1.1743 2.09027 0 -0.803099 1.70514 0 -0.803099 1.70514 0 -1.1743 2.09027 0 -0.384539 14.8652 0 -7.32016 0.947382 0 -7.32016 0.947382 0 -0.384539 14.8652 0 
0.465815 0.28 0 0 -1.17163 2.1162 0 -0.81792 1.70674 0 -0.81792 1.70674 0 -1.17163 2.1162 0 1.33205 12.9664 0 -7.41053 0.799189 0 -7.41053 0.799189 0 1.33205 12.9664 0 
0.468569 0.28 0 0 -1.1651 2.13743 0 -0.832859 1.70801 0 -0.832859 1.70801 0 -1.1651 2.13743 0 3.26822 10.6168 0 -7.46944 0.637799 0 -7.46944 0.637799 0 3.26822 10.6168 0 
0.47133 0.28 0 0 -1.15442 2.1532 0 -0.847853 1.70894 0 -0.847853 1.70894 0 -1.15442 2.1532 0 5.33648 7.88296 0 -7.49723 0.465269 0 -7.49723 0.465269 0 5.33648 7.88296 0 
0.474099 0.28 0 -7.31104e-17 -1.13956 2.16291 0 -0.862842 1.70951 0 -0.862842 1.70951 7.31104e-17 -1.13956 2.16291 -3.65552e-14 7.43342 4.85458 0 -7.49442 0.283791 0 -7.49442 0.283791 3.65552e-14 7.43342 4.85458 0 
0.476875 0.28 0 0 -1.12065 2.16619 0 -0.877765 1.7097 0 -0.877765 1.7097 0 -1.12065 2.16619 3.65552e-14 9.45186 1.63979 0 -7.46164 0.0956742 0 -7.46164 0.0956742 -3.65552e-14 9.45186 1.63979 0 
0.479658 0.28 0 0 -1.09806 2.16291 0 -0.892565 1.70951 0 -0.892565 1.70951 0 -1.09806 2.16291 0 11.2944 -1.64098 0 -7.39971 -0.0966758 0 -7.39971 -0.0966758 0 11.2944 -1.64098 0 
0.482448 0.28 0 0 -1.07229 2.15318 0 -0.907184 1.70893 0 -0.907184 1.70893 0 -1.07229 2.15318 0 12.8854 -4.86286 0 -7.30958 -0.290776 0 -7.30958 -0.290776 0 12.8854 -4.86286 0 
0.485246 0.28 0 -7.04341e-17 -1.04394 2.13737 0 -0.921568 1.70796 0 -0.921568 1.70796 7.04341e-17 -1.04394 2.13737 -3.52171e-14 14.1769 -7.90497 0 -7.19235 -0.48409 0 -7.19235 -0.48409 3.52171e-14 14.1769 -7.90497 0 
0.488051 0.28 0 -6.83194e-17 -1.01364 2.11605 0 -0.935667 1.70661 0 -0.935667 1.70661 6.83194e-17 -1.01364 2.11605 1.05737e-15 15.1494 -10.6584 0 -7.04925 -0.674048 0 -7.04925 -0.674048 -1.05737e-15 15.1494 -10.6584 0 
0.490863 0.28 0 0 -0.982028 2.08999 0 -0.94943 1.7049 0 -0.94943 1.7049 0 -0.982028 2.08999 3.41597e-14 15.8063 -13.0325 0 -6.88164 -0.858072 0 -6.88164 -0.858072 -3.41597e-14 15.8063 -13.0325 0 
0.493682 0.28 0 0 -0.949696 2.06007 0 -0.962812 1.70283 0 -0.962812 1.70283 0 -0.949696 2.06007 0 16.1661 -14.9598 0 -6.69097 -1.0336 0 -6.69097 -1.0336 0 16.1661 -14.9598 0 
0.496508 0.28 0 -6.0545e-17 -0.917185 2.02727 0 -0.97577 1.70043 0 -0.97577 1.70043 6.0545e-17 -0.917185 2.02727 -3.02725e-14 16.2555 -16.3982 0 -6.47877 -1.1981 0 -6.47877 -1.1981 3.02725e-14 16.2555 -16.3982 0 
0.499342 0.28 0 -5.79085e-17 -0.884977 1.99261 0 -0.988263 1.69773 0 -0.988263 1.69773 5.79085e-17 -0.884977 1.99261 1.31822e-15 16.1038 -17.3314 0 -6.24664 -1.34913 0 -6.24664 -1.34913 -1.31822e-15 16.1038 -17.3314 0 
0.502182 0.28 0 0 -0.853496 1.95707 0 -1.00026 1.69477 0 -1.00026 1.69477 0 -0.853496 1.95707 2.89543e-14 15.7407 -17.7678 0 -5.9962 -1.4843 0 -5.9962 -1.4843 -2.89543e-14 15.7407 -17.7678 0 
0.50503 0.28 0 0 -0.823105 1.9216 0 -1.01171 1.69156 0 -1.01171 1.69156 0 -0.823105 1.9216 0 15.1955 -17.7383 0 -5.72907 -1.60135 0 -5.72907 -1.60135 0 15.1955 -17.7383 0 
0.507885 0.28 0 0 -0.794111 1.88701 0 -1.02261 1.68817 0 -1.02261 1.68817 0 -0.794111 1.88701 0 14.497 -17.2924 0 -5.44684 -1.69816 0 -5.44684 -1.69816 0 14.497 -17.2924 0 
0.510747 0.28 0 0 -0.766763 1.85403 0 -1.03291 1.68462 0 -1.03291 1.68462 0 -0.766763 1.85403 0 13.6741 -16.4938 0 -5.15103 -1.77278 0 -5.15103 -1.77278 0 13.6741 -16.4938 0 
0.513616 0.28 0 0 -0.741251 1.82319 0 -1.0426 1.68097 0 -1.0426 1.68097 0 -0.741251 1.82319 0 12.7556 -15.4158 0 -4.84308 -1.82341 0 -4.84308 -1.82341 0 12.7556 -15.4158 0 
0.516493 0.28 0 0 -0.717712 1.79492 0 -1.05164 1.67728 0 -1.05164 1.67728 0 -0.717712 1.79492 0 11.7697 -14.1351 0 -4.52428 -1.84851 0 -4.52428 -1.84851 0 11.7697 -14.1351 0 
0.519376 0.28 0 0 -0.696227 1.76947 0 -1.06004 1.67358 0 -1.06004 1.67358 0 -0.696227 1.76947 0 10.7426 -12.7276 0 -4.19575 -1.84673 0 -4.19575 -1.84673 0 10.7426 -12.7276 0 
0.522267 0.28 0 0 -0.676831 1.74694 0 -1.06775 1.66995 0 -1.06775 1.66995 0 -0.676831 1.74694 0 9.69792 -11.2629 0 -3.85842 -1.81702 0 -3.85842 -1.81702 0 9.69792 -11.2629 0 
0.525165 0.28 0 0 -0.659521 1.72734 0 -1.07478 1.66643 0 -1.07478 1.66643 0 -0.659521 1.72734 0 8.65488 -9.80093 0 -3.51298 -1.75861 0 -3.51298 -1.75861 0 8.65488 -9.80093 0 
0.52807 0.28 0 0 -0.644265 1.71056 0 -1.0811 1.66309 0 -1.0811 1.66309 0 -0.644265 1.71056 0 7.6281 -8.38965 0 -3.15985 -1.67105 0 -3.15985 -1.67105 0 7.6281 -8.38965 0 
0.530981 0.28 0 0 -0.631011 1.69643 0 -1.0867 1.65998 0 -1.0867 1.65998 0 -0.631011 1.69643 0 6.62705 -7.06376 0 -2.79916 -1.55423 0 -2.79916 -1.55423 0 6.62705 -7.06376 0 
0.5339 0.28 0 0 -0.619698 1.68474 0 -1.09156 1.65717 0 -1.09156 1.65717 0 -0.619698 1.68474 0 5.65634 -5.84512 0 -2.43069 -1.40843 0 -2.43069 -1.40843 0 5.65634 -5.84512 0 
0.536827 0.28 0 0 -0.610265 1.67526 0 -1.09567 1.6547 0 -1.09567 1.6547 0 -0.610265 1.67526 0 4.71634 -4.74406 0 -2.05385 -1.23434 0 -2.05385 -1.23434 0 4.71634 -4.74406 0 
0.53976 0.28 0 -4.11767e-17 -0.602657 1.66773 0 -1.099 1.65263 0 -1.099 1.65263 4.11767e-17 -0.602657 1.66773 -2.05884e-14 3.80406 -3.76148 0 -1.66769 -1.0331 0 -1.66769 -1.0331 2.05884e-14 3.80406 -3.76148 0 
0.5427 0.28 0 0 -0.596829 1.66195 0 -1.10154 1.65102 0 -1.10154 1.65102 0 -0.596829 1.66195 2.05884e-14 2.91419 -2.89127 0 -1.27082 -0.806315 0 -1.27082 -0.806315 -2.05884e-14 2.91419 -2.89127 0 
0.545647 0.28 0 0 -0.592749 1.6577 0 -1.10327 1.64991 0 -1.10327 1.64991 0 -0.592749 1.6577 0 2.04001 -2.12277 0 -0.861388 -0.55612 0 -0.861388 -0.55612 0 2.04001 -2.12277 0 
0.548602 0.28 0 0 -0.588325 1.64934 0 -1.10779 1.65482 0 -1.10779 1.65482 0 -0.588325 1.64934 0 2.2121 -4.18483 0 -2.25996 2.4566 0 -2.25996 2.4566 0 2.2121 -4.18483 0 
0.551563 0.28 0 0 -0.588321 1.64933 0 -1.10933 1.65713 0 -1.10933 1.65713 0 -0.588321 1.64933 0 0.00173544 -0.000675175 0 -0.771834 1.15698 0 -0.771834 1.15698 0 0.00173544 -0.000675175 0 
0.554532 0.28 0 0 -0.589754 1.64989 0 -1.11056 1.66082 0 -1.11056 1.66082 0 -0.589754 1.64989 0 -0.716508 0.278183 0 -0.614541 1.84449 0 -0.614541 1.84449 0 -0.716508 0.278183 0 
0.557507 0.28 0 0 -0.592572 1.65098 4.11767e-17 -1.11164 1.66608 -4.11767e-17 -1.11164 1.66608 0 -0.592572 1.65098 0 -1.40898 0.543661 2.05884e-14 -0.539633 2.62803 -2.05884e-14 -0.539633 2.62803 0 -1.40898 0.543661 0 
0.56049 0.28 0 0 -0.596721 1.65256 0 -1.11274 1.67312 0 -1.11274 1.67312 0 -0.596721 1.65256 0 -2.07455 0.792323 -2.05884e-14 -0.553804 3.51976 2.05884e-14 -0.553804 3.51976 0 -2.07455 0.792323 0 
0.563479 0.28 0 0 -0.602146 1.6546 0 -1.11407 1.68218 0 -1.11407 1.68218 0 -0.602146 1.6546 0 -2.71214 1.02114 0 -0.661892 4.52941 0 -0.661892 4.52941 0 -2.71214 1.02114 0 
0.566476 0.28 0 0 -0.608787 1.65706 0 -1.1158 1.6935 0 -1.1158 1.6935 0 -0.608787 1.65706 0 -3.32076 1.22754 0 -0.865381 5.66206 0 -0.865381 5.66206 0 -3.32076 1.22754 0 
0.569479 0.28 0 0 -0.616586 1.65988 0 -1.11812 1.70733 0 -1.11812 1.70733 0 -0.616586 1.65988 0 -3.89943 1.40931 0 -1.16088 6.91573 0 -1.16088 6.91573 0 -3.89943 1.40931 0 
0.57249 0.28 0 0 -0.625481 1.66301 0 -1.1212 1.72389 0 -1.1212 1.72389 0 -0.625481 1.66301 0 -4.44728 1.56467 0 -1.53854 8.27896 0 -1.53854 8.27896 0 -4.44728 1.56467 0 
0.575507 0.28 0 0 -0.635407 1.66639 0 -1.12516 1.74335 0 -1.12516 1.74335 0 -0.635407 1.66639 0 -4.96342 1.69222 0 -1.98075 9.7288 0 -1.98075 9.7288 0 -4.96342 1.69222 0 
0.578532 0.28 0 0 -0.646302 1.66997 0 -1.13008 1.76581 0 -1.13008 1.76581 0 -0.646302 1.66997 0 -5.44704 1.79094 0 -2.46126 11.2295 0 -2.46126 11.2295 0 -5.44704 1.79094 0 
0.581563 0.28 0 0 -0.658096 1.67369 0 -1.13597 1.79127 0 -1.13597 1.79127 0 -0.658096 1.67369 0 -5.89735 1.86016 0 -2.94496 12.7321 0 -2.94496 12.7321 0 -5.89735 1.86016 0 
0.584602 0.28 0 0 -0.670723 1.67749 0 -1.14275 1.81962 0 -1.14275 1.81962 0 -0.670723 1.67749 0 -6.31359 1.89958 0 -3.38848 14.1758 0 -3.38848 14.1758 0 -6.31359 1.89958 0 
0.587647 0.28 0 0 -0.684114 1.68131 0 -1.15023 1.8506 0 -1.15023 1.8506 0 -0.684114 1.68131 0 -6.69507 1.90923 0 -3.74167 15.4902 0 -3.74167 15.4902 0 -6.69507 1.90923 0 
0.590699 0.28 0 0 -0.698196 1.68509 0 -1.15813 1.8838 0 -1.15813 1.8838 0 -0.698196 1.68509 0 -7.04115 1.88946 0 -3.95002 16.5989 0 -3.95002 16.5989 0 -7.04115 1.88946 0 
0.593759 0.28 0 0 -0.712898 1.68877 0 -1.16605 1.91865 0 -1.16605 1.91865 0 -0.712898 1.68877 0 -7.35124 1.84096 0 -3.95801 17.4246 0 -3.95801 17.4246 0 -7.35124 1.84096 0 
0.596825 0.28 0 0 -0.728148 1.6923 0 -1.17347 1.95444 0 -1.17347 1.95444 0 -0.728148 1.6923 0 -7.62484 1.7647 0 -3.7132 17.8935 0 -3.7132 17.8935 0 -7.62484 1.7647 0 
0.599898 0.28 0 0 -0.743871 1.69563 0 -1.17982 1.99032 0 -1.17982 1.99032 0 -0.743871 1.69563 0 -7.86153 1.66194 0 -3.17107 17.9412 0 -3.17107 17.9412 0 -7.86153 1.66194 0 
0.602978 0.28 0 0 -0.759993 1.69869 0 -1.18442 2.02535 0 -1.18442 2.02535 0 -0.759993 1.69869 0 -8.06099 1.53424 0 -2.30049 17.5174 0 -2.30049 17.5174 0 -8.06099 1.53424 0 
0.606065 0.28 0 0 -0.776439 1.70146 0 -1.1866 2.05853 0 -1.1866 2.05853 0 -0.776439 1.70146 0 -8.22305 1.38339 0 -1.08934 16.5903 0 -1.08934 16.5903 0 -8.22305 1.38339 0 
0.609159 0.28 0 0 -0.793134 1.70388 0 -1.1857 2.08883 0 -1.1857 2.08883 0 -0.793134 1.70388 0 -8.34766 1.21144 0 0.450187 15.1502 0 0.450187 15.1502 0 -8.34766 1.21144 0 
0.61226 0.28 0 0 -0.810004 1.70593 0 -1.18114 2.11526 0 -1.18114 2.11526 0 -0.810004 1.70593 0 -8.43494 1.02067 0 2.27767 13.212 0 2.27767 13.212 0 -8.43494 1.02067 0 
0.615368 0.28 0 0 -0.826975 1.70755 0 -1.17249 2.13689 0 -1.17249 2.13689 0 -0.826975 1.70755 0 -8.48519 0.813552 0 4.32361 10.8169 0 4.32361 10.8169 0 -8.48519 0.813552 0 
0.618482 0.28 0 0 -0.843973 1.70874 7.2072e-17 -1.15951 2.15295 -7.2072e-17 -1.15951 2.15295 0 -0.843973 1.70874 0 -8.49889 0.59276 3.6036e-14 6.49301 8.03139 -3.6036e-14 6.49301 8.03139 0 -8.49889 0.59276 0 
0.621604 0.28 0 0 -0.860926 1.70946 0 -1.14216 2.16285 0 -1.14216 2.16285 0 -0.860926 1.70946 0 -8.47673 0.361124 -3.6036e-14 8.67434 4.94609 3.6036e-14 8.67434 4.94609 0 -8.47673 0.361124 0 
0.624732 0.28 0 0 -0.877765 1.7097 0 -1.12065 2.16619 0 -1.12065 2.16619 0 -0.877765 1.7097 0 -8.4196 0.121614 0 10.753 1.67075 0 10.753 1.67075 0 -8.4196 0.121614 0 
0.627868 0.28 0 0 -0.894422 1.70946 0 -1.0954 2.16284 0 -1.0954 2.16284 0 -0.894422 1.70946 0 -8.32861 -0.122688 0 12.6268 -1.67203 0 12.6268 -1.67203 0 -8.32861 -0.122688 0 
0.63101 0.28 0 0 -0.910833 1.70872 0 -1.06696 2.15293 0 -1.06696 2.15293 0 -0.910833 1.70872 0 -8.20505 -0.368612 0 14.2183 -4.95497 0 14.2183 -4.95497 0 -8.20505 -0.368612 0 
0.634159 0.28 0 0 -0.926933 1.70749 0 -1.036 2.13682 0 -1.036 2.13682 0 -0.926933 1.70749 0 -8.05044 -0.612935 0 15.4822 -8.05497 0 15.4822 -8.05497 0 -8.05044 -0.612935 0 
0.637315 0.28 0 0 -0.942666 1.70579 0 -1.00319 2.1151 0 -1.00319 2.1151 0 -0.942666 1.70579 0 -7.86647 -0.852406 0 16.4044 -10.8614 0 16.4044 -10.8614 0 -7.86647 -0.852406 0 
0.640477 0.28 0 0 -0.957976 1.70362 0 -0.969199 2.08854 0 -0.969199 2.08854 0 -0.957976 1.70362 0 -7.65498 -1.08378 0 16.9955 -13.2828 0 16.9955 -13.2828 0 -7.65498 -1.08378 0 
0.643647 0.28 0 0 -0.972812 1.70101 -6.32358e-17 -0.934636 2.05803 6.32358e-17 -0.934636 2.05803 0 -0.972812 1.70101 0 -7.41796 -1.30384 -3.16179e-14 17.2815 -15.2514 3.16179e-14 17.2815 -15.2514 0 -7.41796 -1.30384 0 
0.646823 0.28 0 0 -0.987127 1.698 -6.0545e-17 -0.900045 2.02458 6.0545e-17 -0.900045 2.02458 0 -0.987127 1.698 0 -7.1575 -1.50943 1.3454e-15 17.2954 -16.7253 -1.3454e-15 17.2954 -16.7253 0 -7.1575 -1.50943 0 
0.650006 0.28 0 0 -1.00088 1.6946 0 -0.865902 1.98921 0 -0.865902 1.98921 0 -1.00088 1.6946 0 -6.87578 -1.69752 3.02725e-14 17.0716 -17.6886 -3.02725e-14 17.0716 -17.6886 0 -6.87578 -1.69752 0 
0.653196 0.28 0 0 -1.01403 1.69087 0 -0.832617 1.9529 0 -0.832617 1.9529 0 -1.01403 1.69087 0 -6.57499 -1.86516 0 16.6424 -18.1504 0 16.6424 -18.1504 0 -6.57499 -1.86516 0 
0.656393 0.28 0 0 -1.02654 1.68685 0 -0.80054 1.91662 0 -0.80054 1.91662 0 -1.02654 1.68685 0 -6.25731 -2.00959 0 16.0384 -18.142 0 16.0384 -18.142 0 -6.25731 -2.00959 0 
0.659597 0.28 0 0 -1.03839 1.68259 0 -0.769964 1.88119 0 -0.769964 1.88119 0 -1.03839 1.68259 0 -5.92489 -2.12823 0 15.288 -17.7128 0 15.288 -17.7128 0 -5.92489 -2.12823 0 
0.662807 0.28 0 0 -1.04955 1.67816 0 -0.741126 1.84734 0 -0.741126 1.84734 0 -1.04955 1.67816 0 -5.57976 -2.21868 0 14.4192 -16.9267 0 14.4192 -16.9267 0 -5.57976 -2.21868 0 
0.666024 0.28 0 0 -1.06 1.6736 0 -0.714208 1.81563 0 -0.714208 1.81563 0 -1.06 1.6736 0 -5.22384 -2.27883 0 13.4591 -15.8563 0 13.4591 -15.8563 0 -5.22384 -2.27883 0 
0.669248 0.28 0 0 -1.06972 1.66899 0 -0.68934 1.78647 0 -0.68934 1.78647 0 -1.06972 1.66899 0 -4.85884 -2.30681 0 12.4338 -14.5781 0 12.4338 -14.5781 0 -4.85884 -2.30681 0 
0.672479 0.28 0 0 -1.07869 1.66438 0 -0.666604 1.76014 0 -0.666604 1.76014 0 -1.07869 1.66438 0 -4.48625 -2.30107 0 11.368 -13.1672 0 11.368 -13.1672 0 -4.48625 -2.30107 0 
0.675717 0.28 0 0 -1.08691 1.65986 4.40883e-17 -0.646038 1.73675 -4.40883e-17 -0.646038 1.73675 0 -1.08691 1.65986 0 -4.10728 -2.26038 2.20442e-14 10.2832 -11.6929 -2.20442e-14 10.2832 -11.6929 0 -4.10728 -2.26038 0 
0.678961 0.28 0 0 -1.09435 1.6555 -4.32965e-17 -0.627643 1.71632 4.32965e-17 -0.627643 1.71632 0 -1.09435 1.6555 0 -3.72285 -2.18389 -4.36924e-14 9.19731 -10.2147 4.36924e-14 9.19731 -10.2147 0 -3.72285 -2.18389 0 
0.682212 0.28 0 0 -1.10102 1.65135 4.26544e-17 -0.611395 1.69876 -4.26544e-17 -0.611395 1.69876 0 -1.10102 1.65135 0 -3.3335 -2.07113 4.29754e-14 8.12372 -8.78011 -4.29754e-14 8.12372 -8.78011 0 -3.3335 -2.07113 0 
0.68547 0.28 0 0 -1.1069 1.64751 4.21406e-17 -0.597253 1.68392 -4.21406e-17 -0.597253 1.68392 0 -1.1069 1.64751 0 -2.93937 -1.92209 -2.56883e-16 7.071 -7.42385 2.56883e-16 7.071 -7.42385 0 -2.93937 -1.92209 0 
0.688734 0.28 0 0 -1.11198 1.64403 0 -0.585167 1.67158 0 -0.585167 1.67158 0 -1.11198 1.64403 0 -2.54022 -1.7372 -2.10703e-14 6.04319 -6.16779 2.10703e-14 6.04319 -6.16779 0 -2.54022 -1.7372 0 
0.692006 0.28 0 0 -1.11625 1.641 0 -0.575086 1.66153 0 -0.575086 1.66153 0 -1.11625 1.641 0 -2.13528 -1.51743 0 5.04034 -5.02247 0 5.04034 -5.02247 0 -2.13528 -1.51743 0 
0.695284 0.28 0 0 -1.11969 1.63847 0 -0.566968 1.65356 0 -0.566968 1.65356 0 -1.11969 1.63847 0 -1.72331 -1.26428 0 4.05933 -3.98915 0 4.05933 -3.98915 0 -1.72331 -1.26428 0 
0.698568 0.28 0 0 -1.1223 1.63651 0 -0.560778 1.64743 0 -0.560778 1.64743 0 -1.1223 1.63651 0 -1.30254 -0.979852 0 3.09494 -3.06222 0 3.09494 -3.06222 0 -1.30254 -0.979852 0 
0.70186 0.28 0 0 -1.12404 1.63518 0 -0.556497 1.64297 0 -0.556497 1.64297 0 -1.12404 1.63518 0 -0.870617 -0.666882 0 2.14064 -2.23165 0 2.14064 -2.23165 0 -0.870617 -0.666882 0 
0.705158 0.28 0 0 -1.12861 1.64 0 -0.552125 1.63452 0 -0.552125 1.63452 0 -1.12861 1.64 0 -2.28372 2.41001 0 2.18601 -4.22406 0 2.18601 -4.22406 0 -2.28372 2.41001 0 
0.708463 0.28 0 0 -1.13011 1.64236 0 -0.552244 1.63457 0 -0.552244 1.63457 0 -1.13011 1.64236 0 -0.753122 1.18186 0 -0.0594816 0.0255309 0 -0.0594816 0.0255309 0 -0.753122 1.18186 0 
0.711774 0.28 0 0 -1.13127 1.64623 0 -0.553981 1.63532 0 -0.553981 1.63532 0 -1.13127 1.64623 0 -0.580193 1.93652 0 -0.868866 0.37205 0 -0.868866 0.37205 0 -0.580193 1.93652 0 
0.715093 0.28 0 0 -1.13226 1.6518 0 -0.557278 1.63672 0 -0.557278 1.63672 0 -1.13226 1.6518 0 -0.490972 2.78307 0 -1.64829 0.701235 0 -1.64829 0.701235 0 -0.490972 2.78307 0 
0.718418 0.28 0 -4.14192e-17 -1.13324 1.65927 0 -0.562071 1.63874 0 -0.562071 1.63874 4.14192e-17 -1.13324 1.65927 -2.07096e-14 -0.491565 3.73287 0 -2.39652 1.00886 0 -2.39652 1.00886 2.07096e-14 -0.491565 3.73287 0 
0.721749 0.28 0 -4.1735e-17 -1.13441 1.66886 0 -0.568296 1.64132 0 -0.568296 1.64132 4.1735e-17 -1.13441 1.66886 -1.57905e-16 -0.586232 4.79494 0 -3.11242 1.29126 0 -3.11242 1.29126 1.57905e-16 -0.586232 4.79494 0 
0.725087 0.28 0 0 -1.13596 1.6808 0 -0.575885 1.64441 0 -0.575885 1.64441 0 -1.13596 1.6808 2.08675e-14 -0.775945 5.9738 0 -3.79486 1.54529 0 -3.79486 1.54529 -2.08675e-14 -0.775945 5.9738 0 
0.728432 0.28 0 -4.26544e-17 -1.13808 1.69534 0 -0.584771 1.64795 0 -0.584771 1.64795 4.26544e-17 -1.13808 1.69534 -2.13272e-14 -1.05674 7.26703 0 -4.44282 1.76831 0 -4.44282 1.76831 2.13272e-14 -1.05674 7.26703 0 
0.731784 0.28 0 0 -1.14091 1.71266 0 -0.594882 1.65186 0 -0.594882 1.65186 0 -1.14091 1.71266 2.13272e-14 -1.41816 8.66292 0 -5.05535 1.95822 0 -5.05535 1.95822 -2.13272e-14 -1.41816 8.66292 0 
0.735142 0.28 0 0 -1.1446 1.73294 0 -0.606145 1.65609 0 -0.606145 1.65609 0 -1.1446 1.73294 0 -1.84191 10.1384 0 -5.63147 2.11338 0 -5.63147 2.11338 0 -1.84191 10.1384 0 
0.738507 0.28 0 0 -1.1492 1.75626 0 -0.618485 1.66055 0 -0.618485 1.66055 0 -1.1492 1.75626 0 -2.30096 11.6576 0 -6.17028 2.23262 0 -6.17028 2.23262 0 -2.30096 11.6576 0 
0.741878 0.28 0 -4.62093e-17 -1.15472 1.7826 0 -0.631827 1.66518 0 -0.631827 1.66518 4.62093e-17 -1.15472 1.7826 -2.31047e-14 -2.75931 13.1721 0 -6.67088 2.31522 0 -6.67088 2.31522 2.31047e-14 -2.75931 13.1721 0 
0.745257 0.28 0 0 -1.16106 1.81184 0 -0.646092 1.66991 0 -0.646092 1.66991 0 -1.16106 1.81184 2.31047e-14 -3.17254 14.6212 0 -7.13244 2.36089 0 -7.13244 2.36089 -2.31047e-14 -3.17254 14.6212 0 
0.748641 0.28 0 -4.91812e-17 -1.16804 1.84371 0 -0.6612 1.67465 0 -0.6612 1.67465 4.91812e-17 -1.16804 1.84371 -2.45906e-14 -3.48935 15.9351 0 -7.55414 2.36976 0 -7.55414 2.36976 2.45906e-14 -3.48935 15.9351 0 
0.752033 0.28 0 0 -1.17535 1.87779 0 -0.677071 1.67933 0 -0.677071 1.67933 0 -1.17535 1.87779 2.45906e-14 -3.65397 17.038 0 -7.9352 2.34237 0 -7.9352 2.34237 -2.45906e-14 -3.65397 17.038 0 
0.755431 0.28 0 0 -1.18257 1.91349 0 -0.693621 1.68389 0 -0.693621 1.68389 0 -1.18257 1.91349 0 -3.60954 17.8529 0 -8.27496 2.27964 0 -8.27496 2.27964 0 -3.60954 17.8529 0 
0.758835 0.28 0 -5.5409e-17 -1.18917 1.95011 0 -0.710766 1.68826 0 -0.710766 1.68826 5.5409e-17 -1.18917 1.95011 -2.77045e-14 -3.30238 18.3063 0 -8.57276 2.18285 0 -8.57276 2.18285 2.77045e-14 -3.30238 18.3063 0 
0.762246 0.28 0 0 -1.19455 1.98678 0 -0.728422 1.69236 0 -0.728422 1.69236 0 -1.19455 1.98678 2.77045e-14 -2.68698 18.334 0 -8.82811 2.05363 0 -8.82811 2.05363 -2.77045e-14 -2.68698 18.334 0 
0.765664 0.28 0 -6.0545e-17 -1.19801 2.02255 0 -0.746503 1.69615 0 -0.746503 1.69615 6.0545e-17 -1.19801 2.02255 -3.02725e-14 -1.73175 17.8856 0 -9.04059 1.89394 0 -9.04059 1.89394 3.02725e-14 -1.73175 17.8856 0 
0.769089 0.28 0 0 -1.19886 2.0564 0 -0.764923 1.69956 0 -0.764923 1.69956 0 -1.19886 2.0564 3.02725e-14 -0.425095 16.9287 0 -9.20997 1.70608 0 -9.20997 1.70608 -3.02725e-14 -0.425095 16.9287 0 
0.77252 0.28 0 -6.58714e-17 -1.19642 2.08731 0 -0.783596 1.70255 0 -0.783596 1.70255 6.58714e-17 -1.19642 2.08731 -3.29357e-14 1.21885 15.4532 0 -9.33617 1.49261 0 -9.33617 1.49261 3.29357e-14 1.21885 15.4532 0 
0.775957 0.28 0 0 -1.19011 2.11426 0 -0.802434 1.70506 0 -0.802434 1.70506 0 -1.19011 2.11426 3.29357e-14 3.15594 13.4732 0 -9.41931 1.2564 0 -9.41931 1.2564 -3.29357e-14 3.15594 13.4732 0 
0.779401 0.28 0 0 -1.17949 2.13632 0 -0.821354 1.70706 0 -0.821354 1.70706 0 -1.17949 2.13632 0 5.31097 11.0296 0 -9.45977 1.00053 0 -9.45977 1.00053 0 5.31097 11.0296 0 
0.782852 0.28 0 0 -1.16433 2.15269 0 -0.84027 1.70852 0 -0.84027 1.70852 0 -1.16433 2.15269 0 7.58158 8.18916 0 -9.45813 0.728329 0 -9.45813 0.728329 0 7.58158 8.18916 0 
0.786309 0.28 0 0 -1.14463 2.16278 0 -0.859101 1.7094 0 -0.859101 1.7094 0 -1.14463 2.16278 0 9.84816 5.04334 0 -9.41525 0.443318 0 -9.41525 0.443318 0 9.84816 5.04334 0 
0.789773 0.28 0 0 -1.12065 2.16619 0 -0.877765 1.7097 0 -0.877765 1.7097 0 -1.12065 2.16619 0 11.9887 1.70364 0 -9.33228 0.149172 0 -9.33228 0.149172 0 11.9887 1.70364 0 
0.793243 0.28 0 0 -1.09286 2.16278 0 -0.896186 1.7094 0 -0.896186 1.7094 0 -1.09286 2.16278 0 13.8958 -1.70499 0 -9.21062 -0.150302 0 -9.21062 -0.150302 0 13.8958 -1.70499 0 
0.796719 0.28 0 0 -1.06188 2.15267 0 -0.91429 1.7085 0 -0.91429 1.7085 0 -1.06188 2.15267 0 15.4906 -5.05268 0 -9.05197 -0.451203 0 -9.05197 -0.451203 0 15.4906 -5.05268 0 
0.800203 0.28 0 0 -1.02842 2.13625 0 -0.932007 1.707 0 -0.932007 1.707 0 -1.02842 2.13625 0 16.7301 -8.21398 0 -8.85828 -0.749574 0 -8.85828 -0.749574 0 16.7301 -8.21398 0 
0.803693 0.28 0 -6.83194e-17 -0.993209 2.11409 0 -0.94927 1.70492 0 -0.94927 1.70492 6.83194e-17 -0.993209 2.11409 -3.41597e-14 17.6054 -11.0765 0 -8.63172 -1.04144 0 -8.63172 -1.04144 3.41597e-14 17.6054 -11.0765 0 
0.807189 0.28 0 0 -0.95694 2.087 0 -0.96602 1.70227 0 -0.96602 1.70227 0 -0.95694 2.087 3.41597e-14 18.1344 -13.5477 0 -8.37471 -1.32284 0 -8.37471 -1.32284 -3.41597e-14 18.1344 -13.5477 0 
0.810692 0.28 0 0 -0.92024 2.05588 0 -0.982199 1.69909 0 -0.982199 1.69909 0 -0.92024 2.05588 0 18.3504 -15.5597 0 -8.08983 -1.58988 0 -8.08983 -1.58988 0 18.3504 -15.5597 0 
0.814201 0.28 0 0 -0.883654 2.02174 0 -0.997759 1.69542 0 -0.997759 1.69542 0 -0.883654 2.02174 0 18.2928 -17.0707 0 -7.77979 -1.83876 0 -7.77979 -1.83876 0 18.2928 -17.0707 0 
0.817717 0.28 0 0 -0.847653 1.9856 0 -1.01265 1.69128 0 -1.01265 1.69128 0 -0.847653 1.9856 0 18.0005 -18.0656 0 -7.44739 -2.0658 0 -7.44739 -2.0658 0 18.0005 -18.0656 0 
0.821239 0.28 0 0 -0.812635 1.9485 0 -1.02684 1.68675 0 -1.02684 1.68675 0 -0.812635 1.9485 0 17.5087 -18.554 0 -7.09547 -2.2675 0 -7.09547 -2.2675 0 17.5087 -18.554 0 
0.824768 0.28 0 0 -0.778938 1.91136 0 -1.0403 1.68187 0 -1.0403 1.68187 0 -0.778938 1.91136 0 16.8489 -18.5674 0 -6.72686 -2.44056 0 -6.72686 -2.44056 0 16.8489 -18.5674 0 
0.828303 0.28 0 0 -0.746838 1.87505 0 -1.05299 1.6767 0 -1.05299 1.6767 0 -0.746838 1.87505 0 16.0496 -18.1558 0 -6.34428 -2.58192 0 -6.34428 -2.58192 0 16.0496 -18.1558 0 
0.831845 0.28 0 0 -0.716564 1.84029 0 -1.06489 1.67133 0 -1.06489 1.67133 0 -0.716564 1.84029 0 15.1373 -17.3825 0 -5.95035 -2.68877 0 -5.95035 -2.68877 0 15.1373 -17.3825 0 
0.835393 0.28 0 0 -0.688288 1.80765 0 -1.07598 1.66581 0 -1.07598 1.66581 0 -0.688288 1.80765 0 14.1377 -16.32 0 -5.54749 -2.75862 0 -5.54749 -2.75862 0 14.1377 -16.32 0 
0.838948 0.28 0 0 -0.662138 1.77756 0 -1.08626 1.66023 0 -1.08626 1.66023 0 -0.662138 1.77756 0 13.0751 -15.0442 0 -5.13788 -2.78932 0 -5.13788 -2.78932 0 13.0751 -15.0442 0 
0.842509 0.28 0 0 -0.638194 1.7503 0 -1.09571 1.65467 0 -1.09571 1.65467 0 -0.638194 1.7503 0 11.9721 -13.6298 0 -4.72337 -2.77907 0 -4.72337 -2.77907 0 11.9721 -13.6298 0 
0.846076 0.28 0 0 -0.616496 1.72601 0 -1.10432 1.64922 0 -1.10432 1.64922 0 -0.616496 1.72601 0 10.8489 -12.1452 0 -4.3055 -2.7265 0 -4.3055 -2.7265 0 10.8489 -12.1452 0 
0.84965 0.28 0 -4.32965e-17 -0.597053 1.70471 0 -1.11209 1.64396 0 -1.11209 1.64396 4.32965e-17 -0.597053 1.70471 -2.16482e-14 9.72167 -10.6496 0 -3.88539 -2.63065 0 -3.88539 -2.63065 2.16482e-14 9.72167 -10.6496 0 
0.85323 0.28 0 0 -0.579847 1.68633 0 -1.11901 1.63898 0 -1.11901 1.63898 0 -0.579847 1.68633 2.16482e-14 8.60285 -9.19034 0 -3.46372 -2.49108 0 -3.46372 -2.49108 -2.16482e-14 8.60285 -9.19034 0 
0.856817 0.28 0 0 -0.564847 1.67072 0 -1.1251 1.63436 0 -1.1251 1.63436 0 -0.564847 1.67072 0 7.50016 -7.8019 0 -3.04065 -2.30784 0 -3.04065 -2.30784 0 7.50016 -7.8019 0 
0.86041 0.28 0 0 -0.552013 1.65771 0 -1.13033 1.6302 0 -1.13033 1.6302 0 -0.552013 1.65771 0 6.4171 -6.50623 0 -2.61584 -2.08156 0 -2.61584 -2.08156 0 6.4171 -6.50623 0 
0.86401 0.28 0 -4.14192e-17 -0.541306 1.64708 0 -1.1347 1.62657 0 -1.1347 1.62657 4.14192e-17 -0.541306 1.64708 -2.07096e-14 5.35344 -5.31409 0 -2.18835 -1.81348 0 -2.18835 -1.81348 2.07096e-14 5.35344 -5.31409 0 
0.867616 0.28 0 0 -0.532694 1.63863 0 -1.13822 1.62356 0 -1.13822 1.62356 0 -0.532694 1.63863 2.07096e-14 4.30601 -4.22714 0 -1.75663 -1.50551 0 -1.75663 -1.50551 -2.07096e-14 4.30601 -4.22714 0 
0.871228 0.28 0 0 -0.526154 1.63215 0 -1.14085 1.62124 0 -1.14085 1.62124 0 -0.526154 1.63215 0 3.26965 -3.24031 0 -1.31846 -1.16027 0 -1.31846 -1.16027 0 3.26965 -3.24031 0 
0.874847 0.28 0 0 -0.521678 1.62746 0 -1.1426 1.61968 0 -1.1426 1.61968 0 -0.521678 1.62746 0 2.23803 -2.34425 0 -0.870945 -0.781125 0 -0.870945 -0.781125 0 2.23803 -2.34425 0 
0.878472 0.28 0 0 -0.517351 1.61893 0 -1.1472 1.6244 0 -1.1472 1.6244 0 -0.517351 1.61893 0 2.16377 -4.26388 0 -2.30231 2.36402 0 -2.30231 2.36402 0 2.16377 -4.26388 0 
0.882104 0.28 0 0 -0.517588 1.61904 4.08563e-17 -1.14868 1.62683 -4.08563e-17 -1.14868 1.62683 0 -0.517588 1.61904 0 -0.118807 0.0554886 2.04281e-14 -0.738703 1.2107 -2.04281e-14 -0.738703 1.2107 0 -0.118807 0.0554886 0 
0.885742 0.28 0 0 -0.51962 1.61999 0 -1.14979 1.6309 0 -1.14979 1.6309 0 -0.51962 1.61999 0 -1.01573 0.473148 -2.04281e-14 -0.556792 2.03603 2.04281e-14 -0.556792 2.03603 0 -1.01573 0.473148 0 
0.889386 0.28 0 0 -0.523377 1.62173 -4.11767e-17 -1.15071 1.6368 4.11767e-17 -1.15071 1.6368 0 -0.523377 1.62173 0 -1.87864 0.869233 -2.05884e-14 -0.459383 2.94882 2.05884e-14 -0.459383 2.94882 0 -1.87864 0.869233 0 
0.893037 0.28 0 0 -0.52879 1.6242 0 -1.15161 1.64471 0 -1.15161 1.64471 0 -0.52879 1.6242 0 -2.70626 1.23872 2.05884e-14 -0.451918 3.95959 -2.05884e-14 -0.451918 3.95959 0 -2.70626 1.23872 0 
0.896694 0.28 0 0 -0.535784 1.62736 0 -1.15269 1.65487 0 -1.15269 1.65487 0 -0.535784 1.62736 0 -3.49734 1.57724 0 -0.53809 5.07662 0 -0.53809 5.07662 0 -3.49734 1.57724 0 
0.900357 0.28 0 0 -0.544286 1.63112 0 -1.15413 1.66748 0 -1.15413 1.66748 0 -0.544286 1.63112 0 -4.25071 1.88109 0 -0.718312 6.30383 0 -0.718312 6.30383 0 -4.25071 1.88109 0 
0.904027 0.28 0 0 -0.554216 1.63542 0 -1.1561 1.68275 0 -1.1561 1.68275 0 -0.554216 1.63542 0 -4.96529 2.1472 0 -0.988067 7.63838 0 -0.988067 7.63838 0 -4.96529 2.1472 0 
0.907703 0.28 0 0 -0.565496 1.64016 4.32965e-17 -1.15878 1.70089 -4.32965e-17 -1.15878 1.70089 0 -0.565496 1.64016 0 -5.64 2.37312 2.16482e-14 -1.33635 9.06821 -2.16482e-14 -1.33635 9.06821 0 -5.64 2.37312 0 
0.911385 0.28 0 0 -0.578044 1.64528 0 -1.16226 1.72203 0 -1.16226 1.72203 0 -0.578044 1.64528 0 -6.27385 2.55696 -2.16482e-14 -1.74422 10.5702 2.16482e-14 -1.74422 10.5702 0 -6.27385 2.55696 0 
0.915074 0.28 0 0 -0.591776 1.65067 0 -1.16663 1.74625 0 -1.16663 1.74625 0 -0.591776 1.65067 0 -6.86581 2.69744 0 -2.18397 12.1085 0 -2.18397 12.1085 0 -6.86581 2.69744 0 
0.918769 0.28 0 0 -0.606605 1.65626 0 -1.17187 1.77352 0 -1.17187 1.77352 0 -0.606605 1.65626 0 -7.41489 2.79376 0 -2.61879 13.635 0 -2.61879 13.635 0 -7.41489 2.79376 0 
0.92247 0.28 0 0 -0.622446 1.66195 0 -1.17788 1.80369 0 -1.17788 1.80369 0 -0.622446 1.66195 0 -7.92016 2.8457 0 -3.00334 15.0894 0 -3.00334 15.0894 0 -7.92016 2.8457 0 
0.926177 0.28 0 0 -0.639207 1.66766 0 -1.18445 1.8365 0 -1.18445 1.8365 0 -0.639207 1.66766 0 -8.38067 2.85351 0 -3.28527 16.4023 0 -3.28527 16.4023 0 -8.38067 2.85351 0 
0.929891 0.28 0 0 -0.656798 1.67329 0 -1.19126 1.8715 0 -1.19126 1.8715 0 -0.656798 1.67329 0 -8.79553 2.81788 0 -3.40767 17.4986 0 -3.40767 17.4986 0 -8.79553 2.81788 0 
0.933611 0.28 0 0 -0.675126 1.67877 0 -1.19789 1.9081 0 -1.19789 1.9081 0 -0.675126 1.67877 0 -9.16391 2.74001 0 -3.31245 18.3018 0 -3.31245 18.3018 0 -9.16391 2.74001 0 
0.937338 0.28 0 0 -0.694096 1.68402 0 -1.20378 1.94558 0 -1.20378 1.94558 0 -0.694096 1.68402 0 -9.48502 2.62149 0 -2.94471 18.7387 0 -2.94471 18.7387 0 -9.48502 2.62149 0 
0.94107 0.28 0 0 -0.713612 1.68894 0 -1.20829 1.98307 0 -1.20829 1.98307 0 -0.713612 1.68894 0 -9.75823 2.46435 0 -2.25798 18.7454 0 -2.25798 18.7454 0 -9.75823 2.46435 0 
0.944809 0.28 0 0 -0.733579 1.69349 0 -1.21073 2.01961 0 -1.21073 2.01961 0 -0.733579 1.69349 0 -9.98301 2.27101 0 -1.22015 18.271 0 -1.22015 18.271 0 -9.98301 2.27101 0 
0.948555 0.28 0 0 -0.753897 1.69757 0 -1.21037 2.05418 0 -1.21037 2.05418 0 -0.753897 1.69757 0 -10.159 2.04424 0 0.179951 17.2829 0 0.179951 17.2829 0 -10.159 2.04424 0 
0.952306 0.28 0 0 -0.774469 1.70115 0 -1.20652 2.08572 0 -1.20652 2.08572 0 -0.774469 1.70115 0 -10.2861 1.78717 0 1.92644 15.7702 0 1.92644 15.7702 0 -10.2861 1.78717 0 
0.956064 0.28 0 0 -0.795197 1.70416 6.83194e-17 -1.19858 2.11321 -6.83194e-17 -1.19858 2.11321 0 -0.795197 1.70416 0 -10.3644 1.50327 3.41597e-14 3.97163 13.7465 -3.41597e-14 3.97163 13.7465 0 -10.3644 1.50327 0 
0.959828 0.28 0 0 -0.815986 1.70655 0 -1.18611 2.13571 0 -1.18611 2.13571 0 -0.815986 1.70655 0 -10.3942 1.19628 -3.41597e-14 6.2348 11.2521 3.41597e-14 6.2348 11.2521 0 -10.3942 1.19628 0 
0.963598 0.28 0 0 -0.836738 1.70829 7.2072e-17 -1.16889 2.15242 -7.2072e-17 -1.16889 2.15242 0 -0.836738 1.70829 0 -10.3763 0.870216 3.6036e-14 8.60638 8.35421 -3.6036e-14 8.60638 8.35421 0 -10.3763 0.870216 0 
0.967374 0.28 0 0 -0.857362 1.70935 7.31104e-17 -1.14698 2.16271 -7.31104e-17 -1.14698 2.16271 0 -0.857362 1.70935 0 -10.3117 0.529312 5.19193e-16 10.9587 5.14507 -5.19193e-16 10.9587 5.14507 0 -10.3117 0.529312 0 
0.971157 0.28 0 0 -0.877765 1.7097 0 -1.12065 2.16619 0 -1.12065 2.16619 0 -0.877765 1.7097 0 -10.2017 0.177994 -3.65552e-14 13.1622 1.73804 3.65552e-14 13.1622 1.73804 0 -10.2017 0.177994 0 
0.974946 0.28 0 0 -0.897862 1.70934 0 -1.09044 2.16271 0 -1.09044 2.16271 0 -0.897862 1.70934 0 -10.0482 -0.179169 0 15.1045 -1.73944 0 15.1045 -1.73944 0 -10.0482 -0.179169 0 
0.978741 0.28 0 0 -0.917568 1.70827 7.2072e-17 -1.05703 2.1524 -7.2072e-17 -1.05703 2.1524 0 -0.917568 1.70827 0 -9.85314 -0.537503 3.6036e-14 16.7049 -5.15477 -3.6036e-14 16.7049 -5.15477 0 -9.85314 -0.537503 0 
0.982542 0.28 0 0 -0.936806 1.70649 0 -1.02119 2.13564 0 -1.02119 2.13564 0 -0.936806 1.70649 0 -9.619 -0.892284 -3.6036e-14 17.9225 -8.37998 3.6036e-14 17.9225 -8.37998 0 -9.619 -0.892284 0 
0.98635 0.28 0 0 -0.955503 1.70401 0 -0.983681 2.11304 0 -0.983681 2.11304 0 -0.955503 1.70401 0 -9.34852 -1.23877 0 18.754 -11.3008 0 18.754 -11.3008 0 -9.34852 -1.23877 0 
0.990163 0.28 0 0 -0.973592 1.70086 0 -0.945233 2.08539 0 -0.945233 2.08539 0 -0.973592 1.70086 0 -9.0447 -1.57228 0 19.2241 -13.8238 0 19.2241 -13.8238 0 -9.0447 -1.57228 0 
0.993983 0.28 0 0 -0.991014 1.69709 0 -0.906486 2.05363 0 -0.906486 2.05363 0 -0.991014 1.69709 0 -8.71076 -1.88818 0 19.3736 -15.8806 0 19.3736 -15.8806 0 -8.71076 -1.88818 0 
0.997809 0.28 0 0 -1.00771 1.69272 0 -0.86799 2.01877 0 -0.86799 2.01877 0 -1.00771 1.69272 0 -8.35011 -2.182 0 19.248 -17.4301 0 19.248 -17.4301 0 -8.35011 -2.182 0 
1.00164 0.28 0 0 -1.02365 1.68782 0 -0.830209 1.98185 0 -0.830209 1.98185 0 -1.02365 1.68782 0 -7.96624 -2.44943 0 18.8907 -18.4575 0 18.8907 -18.4575 0 -7.96624 -2.44943 0 
1.00548 0.28 0 0 -1.03877 1.68245 0 -0.79353 1.94391 0 -0.79353 1.94391 0 -1.03877 1.68245 0 -7.5627 -2.68638 0 18.3395 -18.9733 0 18.3395 -18.9733 0 -7.5627 -2.68638 0 
1.00932 0.28 0 0 -1.05306 1.67667 0 -0.758276 1.90589 0 -0.758276 1.90589 0 -1.05306 1.67667 0 -7.14296 -2.889 0 17.627 -19.0094 0 17.627 -19.0094 0 -7.14296 -2.889 0 
1.01318 0.28 0 0 -1.06648 1.67057 0 -0.724713 1.86866 0 -0.724713 1.86866 0 -1.06648 1.67057 0 -6.71044 -3.05374 0 16.7812 -18.6157 0 16.7812 -18.6157 0 -6.71044 -3.05374 0 
1.01703 0.28 0 0 -1.07902 1.66421 0 -0.693057 1.83295 0 -0.693057 1.83295 0 -1.07902 1.66421 0 -6.26834 -3.17739 0 15.8279 -17.8557 0 15.8279 -17.8557 0 -6.26834 -3.17739 0 
1.02089 0.28 0 0 -1.09065 1.6577 4.75803e-17 -0.663476 1.79934 -4.75803e-17 -0.663476 1.79934 0 -1.09065 1.6577 0 -5.81964 -3.25707 2.37902e-14 14.7909 -16.8014 -2.37902e-14 14.7909 -16.8014 0 -5.81964 -3.25707 0 
1.02476 0.28 0 0 -1.10139 1.65112 0 -0.63609 1.76829 0 -0.63609 1.76829 0 -1.10139 1.65112 0 -5.36698 -3.29034 -2.37902e-14 13.6928 -15.5281 2.37902e-14 13.6928 -15.5281 0 -5.36698 -3.29034 0 
1.02864 0.28 0 0 -1.11121 1.64457 0 -0.610981 1.74007 0 -0.610981 1.74007 0 -1.11121 1.64457 0 -4.91263 -3.27517 0 12.5545 -14.1098 0 12.5545 -14.1098 0 -4.91263 -3.27517 0 
1.03252 0.28 0 0 -1.12013 1.63815 0 -0.588192 1.71484 0 -0.588192 1.71484 0 -1.12013 1.63815 0 -4.45843 -3.21002 0 11.3943 -12.6145 0 11.3943 -12.6145 0 -4.45843 -3.21002 0 
1.03641 0.28 0 0 -1.12814 1.63196 0 -0.567738 1.69264 0 -0.567738 1.69264 0 -1.12814 1.63196 0 -4.00573 -3.09386 0 10.2275 -11.1009 0 10.2275 -11.1009 0 -4.00573 -3.09386 0 
1.0403 0.28 0 0 -1.13525 1.62611 0 -0.549607 1.6734 0 -0.549607 1.6734 0 -1.13525 1.62611 0 -3.5553 -2.92622 0 9.06511 -9.61586 0 9.06511 -9.61586 0 -3.5553 -2.92622 0 
1.0442 0.28 0 0 -1.14147 1.62069 4.21406e-17 -0.533779 1.65702 -4.21406e-17 -0.533779 1.65702 0 -1.14147 1.62069 0 -3.10736 -2.70728 2.10703e-14 7.91422 -8.19388 -2.10703e-14 7.91422 -8.19388 0 -3.10736 -2.70728 0 
1.04811 0.28 0 0 -1.14679 1.61582 0 -0.520223 1.6433 0 -0.520223 1.6433 0 -1.14679 1.61582 0 -2.66143 -2.43784 -2.10703e-14 6.77786 -6.85692 2.10703e-14 6.77786 -6.85692 0 -2.66143 -2.43784 0 
1.05202 0.28 0 0 -1.15122 1.61158 4.14192e-17 -0.508912 1.63207 -4.14192e-17 -0.508912 1.63207 0 -1.15122 1.61158 0 -2.21637 -2.11943 2.07096e-14 5.65552 -5.61598 -2.07096e-14 5.65552 -5.61598 0 -2.21637 -2.11943 0 
1.05594 0.28 0 0 -1.15476 1.60807 4.11767e-17 -0.499824 1.62313 -4.11767e-17 -0.499824 1.62313 0 -1.15476 1.60807 0 -1.77028 -1.75439 -1.21243e-16 4.54402 -4.47315 1.21243e-16 4.54402 -4.47315 0 -1.77028 -1.75439 0 
1.05986 0.28 0 0 -1.1574 1.60538 0 -0.492947 1.61628 0 -0.492947 1.61628 0 -1.1574 1.60538 0 -1.32049 -1.34587 -2.05884e-14 3.43829 -3.42392 2.05884e-14 3.43829 -3.42392 0 -1.32049 -1.34587 0 
1.06379 0.28 0 0 -1.15913 1.60358 4.08563e-17 -0.488283 1.61136 -4.08563e-17 -0.488283 1.61136 0 -1.15913 1.60358 0 -0.863494 -0.897897 2.04281e-14 2.33222 -2.45967 -2.04281e-14 2.33222 -2.45967 0 -0.863494 -0.897897 0 
1.06773 0.28 0 0 -1.16376 1.60822 0 -0.483993 1.60275 0 -0.483993 1.60275 0 -1.16376 1.60822 0 -2.31639 2.31889 -2.04281e-14 2.14521 -4.30431 2.04281e-14 2.14521 -4.30431 0 -2.31639 2.31889 0 
1.07167 0.28 0 -4.08563e-17 -1.16522 1.6107 0 -0.484345 1.60293 0 -0.484345 1.60293 4.08563e-17 -1.16522 1.6107 -2.04281e-14 -0.728182 1.24287 0 -0.176088 0.0885317 0 -0.176088 0.0885317 2.04281e-14 -0.728182 1.24287 0 
1.07562 0.28 0 0 -1.16631 1.61499 0 -0.486659 1.60409 0 -0.486659 1.60409 0 -1.16631 1.61499 2.04281e-14 -0.543169 2.14162 0 -1.15694 0.580029 0 -1.15694 0.580029 -2.04281e-14 -0.543169 2.14162 0 
1.07957 0.28 0 4.11767e-17 -1.16719 1.62123 0 -0.490858 1.60618 0 -0.490858 1.60618 -4.11767e-17 -1.16719 1.62123 2.05884e-14 -0.442963 3.1232 0 -2.09991 1.04549 0 -2.09991 1.04549 -2.05884e-14 -0.442963 3.1232 0 
1.08353 0.28 0 0 -1.16806 1.62963 0 -0.496866 1.60914 0 -0.496866 1.60914 0 -1.16806 1.62963 -2.05884e-14 -0.432323 4.19719 0 -3.00365 1.47906 0 -3.00365 1.47906 2.05884e-14 -0.432323 4.19719 0 
1.0875 0.28 0 0 -1.16909 1.64037 0 -0.504599 1.61289 0 -0.504599 1.61289 0 -1.16909 1.64037 0 -0.514336 5.37113 0 -3.86681 1.87565 0 -3.86681 1.87565 0 -0.514336 5.37113 0 
1.09147 0.28 0 0 -1.17046 1.65367 0 -0.513976 1.61735 0 -0.513976 1.61735 0 -1.17046 1.65367 0 -0.688852 6.64832 0 -4.6882 2.23097 0 -4.6882 2.23097 0 -0.688852 6.64832 0 
1.09545 0.28 0 0 -1.17237 1.66972 0 -0.524909 1.62243 0 -0.524909 1.62243 0 -1.17237 1.66972 0 -0.950828 8.02544 0 -5.46667 2.54153 0 -5.46667 2.54153 0 -0.950828 8.02544 0 
1.09943 0.28 0 0 -1.17494 1.6887 0 -0.537311 1.62804 0 -0.537311 1.62804 0 -1.17494 1.6887 0 -1.28872 9.49017 0 -6.20108 2.8045 0 -6.20108 2.8045 0 -1.28872 9.49017 0 
1.10343 0.28 0 0 -1.17831 1.71074 0 -0.551092 1.63408 0 -0.551092 1.63408 0 -1.17831 1.71074 0 -1.68305 11.0192 0 -6.89034 3.01781 0 -6.89034 3.01781 0 -1.68305 11.0192 0 
1.10742 0.28 0 0 -1.18252 1.73589 0 -0.566159 1.64044 0 -0.566159 1.64044 0 -1.18252 1.73589 0 -2.10545 12.577 0 -7.53338 3.18 0 -7.53338 3.18 0 -2.10545 12.577 0 
1.11142 0.28 0 -4.62093e-17 -1.18756 1.76412 0 -0.582417 1.64702 0 -0.582417 1.64702 4.62093e-17 -1.18756 1.76412 -2.31047e-14 -2.51841 14.1154 0 -8.12912 3.29029 0 -8.12912 3.29029 2.31047e-14 -2.51841 14.1154 0 
1.11543 0.28 0 0 -1.19331 1.79527 0 -0.59977 1.65371 0 -0.59977 1.65371 0 -1.19331 1.79527 2.31047e-14 -2.87579 15.5748 0 -8.67649 3.34846 0 -8.67649 3.34846 -2.31047e-14 -2.87579 15.5748 0 
1.11945 0.28 0 0 -1.19956 1.82904 0 -0.618119 1.66042 0 -0.618119 1.66042 0 -1.19956 1.82904 0 -3.1243 16.8863 0 -9.17444 3.35491 0 -9.17444 3.35491 0 -3.1243 16.8863 0 
1.12347 0.28 0 0 -1.20597 1.86499 0 -0.637363 1.66704 0 -0.637363 1.66704 0 -1.20597 1.86499 0 -3.20598 17.9754 0 -9.62191 3.31055 0 -9.62191 3.31055 0 -3.20598 17.9754 0 
1.12749 0.28 0 0 -1.21209 1.90253 0 -0.657399 1.67348 0 -0.657399 1.67348 0 -1.21209 1.90253 0 -3.06159 18.7661 0 -10.0179 3.21682 0 -10.0179 3.21682 0 -3.06159 18.7661 0 
1.13153 0.28 0 0 -1.21736 1.9409 0 -0.678122 1.67963 0 -0.678122 1.67963 0 -1.21736 1.9409 0 -2.63509 19.1858 0 -10.3615 3.07566 0 -10.3615 3.07566 0 -2.63509 19.1858 0 
1.13557 0.28 0 0 -1.22112 1.97924 0 -0.699425 1.68541 0 -0.699425 1.68541 0 -1.22112 1.97924 0 -1.87901 19.1704 0 -10.6519 2.8895 0 -10.6519 2.8895 0 -1.87901 19.1704 0 
1.13961 0.28 0 0 -1.22264 2.01658 0 -0.721202 1.69073 0 -0.721202 1.69073 0 -1.22264 2.01658 0 -0.760738 18.6691 0 -10.8884 2.66121 0 -10.8884 2.66121 0 -0.760738 18.6691 0 
1.14366 0.28 0 0 -1.22118 2.05187 0 -0.743343 1.69552 0 -0.743343 1.69552 0 -1.22118 2.05187 0 0.730654 17.6487 0 -11.0706 2.3941 0 -11.0706 2.3941 0 0.730654 17.6487 0 
1.14772 0.28 0 0 -1.21603 2.08407 0 -0.76574 1.6997 0 -0.76574 1.6997 0 -1.21603 2.08407 0 2.57765 16.0976 0 -11.198 2.09186 0 -11.198 2.09186 0 2.57765 16.0976 0 
1.15178 0.28 0 -6.83194e-17 -1.20657 2.11213 0 -0.788281 1.70322 0 -0.788281 1.70322 6.83194e-17 -1.20657 2.11213 -3.41597e-14 4.72924 14.0288 0 -11.2709 1.75858 0 -11.2709 1.75858 3.41597e-14 4.72924 14.0288 0 
1.15585 0.28 0 0 -1.19237 2.13509 0 -0.81086 1.70602 0 -0.81086 1.70602 0 -1.19237 2.13509 3.41597e-14 7.09936 11.4821 0 -11.2896 1.39867 0 -11.2896 1.39867 -3.41597e-14 7.09936 11.4821 0 
1.15992 0.28 0 0 -1.17323 2.15214 0 -0.83337 1.70805 0 -0.83337 1.70805 0 -1.17323 2.15214 0 9.57134 8.52474 0 -11.2548 1.01688 0 -11.2548 1.01688 0 9.57134 8.52474 0 
1.164 0.28 0 0 -1.14921 2.16264 0 -0.855705 1.70929 0 -0.855705 1.70929 0 -1.14921 2.16264 0 12.0095 5.25017 0 -11.1677 0.618178 0 -11.1677 0.618178 0 12.0095 5.25017 0 
1.16809 0.28 0 0 -1.12065 2.16619 0 -0.877765 1.7097 0 -0.877765 1.7097 0 -1.12065 2.16619 0 14.2768 1.77357 0 -11.0299 0.207771 0 -11.0299 0.207771 0 14.2768 1.77357 0 
1.17218 0.28 0 0 -1.08814 2.16264 0 -0.899452 1.70929 0 -0.899452 1.70929 0 -1.08814 2.16264 0 16.2556 -1.77501 0 -10.8436 -0.208978 0 -10.8436 -0.208978 0 16.2556 -1.77501 0 
1.17628 0.28 0 0 -1.05242 2.15212 0 -0.920675 1.70803 0 -0.920675 1.70803 0 -1.05242 2.15212 0 17.8634 -5.26014 0 -10.6112 -0.626595 0 -10.6112 -0.626595 0 17.8634 -5.26014 0 
1.18038 0.28 0 0 -1.01429 2.13502 0 -0.941346 1.70595 0 -0.941346 1.70595 0 -1.01429 2.13502 0 19.0614 -8.55121 0 -10.3356 -1.03955 0 -10.3356 -1.03955 0 19.0614 -8.55121 0 
1.18449 0.28 0 0 -0.974589 2.11195 0 -0.961386 1.70307 0 -0.961386 1.70307 0 -0.974589 2.11195 0 19.8517 -11.532 0 -10.0202 -1.44233 0 -10.0202 -1.44233 0 19.8517 -11.532 0 
1.18861 0.28 0 0 -0.934057 2.08374 0 -0.980723 1.69941 0 -0.980723 1.69941 0 -0.934057 2.08374 0 20.266 -14.1081 0 -9.66854 -1.82946 0 -9.66854 -1.82946 0 20.266 -14.1081 0 
1.19273 0.28 0 0 -0.893353 2.05131 0 -0.999293 1.69502 0 -0.999293 1.69502 0 -0.893353 2.05131 0 20.352 -16.2109 0 -9.28467 -2.19561 0 -9.28467 -2.19561 0 20.352 -16.2109 0 
1.19686 0.28 0 0 -0.853029 2.01571 0 -1.01704 1.68995 0 -1.01704 1.68995 0 -0.853029 2.01571 0 20.1616 -17.7996 0 -8.87268 -2.53559 0 -8.87268 -2.53559 0 20.1616 -17.7996 0 
1.20099 0.28 0 0 -0.813545 1.97799 0 -1.03391 1.68426 0 -1.03391 1.68426 0 -0.813545 1.97799 0 19.7425 -18.8604 0 -8.43681 -2.84445 0 -8.43681 -2.84445 0 19.7425 -18.8604 0 
1.20513 0.28 0 5.5409e-17 -0.775275 1.93919 0 -1.04987 1.67802 0 -1.04987 1.67802 -5.5409e-17 -0.775275 1.93919 2.77045e-14 19.135 -19.4041 0 -7.98136 -3.11749 0 -7.98136 -3.11749 -2.77045e-14 19.135 -19.4041 0 
